;FLAVOR:Marlin
;TIME:6586
;Filament used: 2.45198m
;Layer height: 0.1
;MINX:68
;MINY:41.5
;MINZ:0.1
;MAXX:152
;MAXY:178.5
;MAXZ:2
;Generated with Cura_SteamEngine 5.0.0
M140 S60
M105
M190 S60
M104 S200
M105
M109 S200
M82 ;absolute extrusion mode
; Ender 3 Custom Start G-code
G92 E0 ; Reset Extruder
G28 ; Home all axes
G1 Z2.0 F3000 ; Move Z Axis up little to prevent scratching of Heat Bed
G1 X0.1 Y20 Z0.3 F5000.0 ; Move to start position
G1 X0.1 Y200.0 Z0.3 F1500.0 E15 ; Draw the first line
G1 X0.4 Y200.0 Z0.3 F5000.0 ; Move to side a little
G1 X0.4 Y20 Z0.3 F1500.0 E30 ; Draw the second line
G92 E0 ; Reset Extruder
G1 Z2.0 F3000 ; Move Z Axis up little to prevent scratching of Heat Bed
G1 X5 Y20 Z0.3 F5000.0 ; Move over to prevent blob squish
M301 E0 P24.27 I1.94 D75.85 ; Extruder PID settings
M304 P204.56 I28.95 D732.38 ; Bed PID settings
M92 E98.78210 ; Extruder Calibration
G92 E0
G92 E0
G1 F1500 E-6.5
;LAYER_COUNT:20
;LAYER:0
M107
G0 F6000 X71.081 Y48.095 Z0.1
G0 X68.001 Y58.059
;TYPE:SKIRT
G1 F1500 E0
G1 F1200 X68.022 Y57.053 E0.01566
G1 X68.055 Y56.405 E0.02575
G1 X68.195 Y55.129 E0.04573
G1 X68.294 Y54.544 E0.05496
G1 X68.591 Y53.26 E0.07547
G1 X68.761 Y52.685 E0.0848
G1 X69.215 Y51.435 E0.10549
G1 X69.466 Y50.855 E0.11533
G1 X70.084 Y49.64 E0.13654
G1 X70.368 Y49.158 E0.14524
G1 X71.081 Y48.095 E0.16516
G1 X71.461 Y47.594 E0.17495
G1 X72.354 Y46.557 E0.19624
G1 X72.764 Y46.137 E0.20537
G1 X73.713 Y45.272 E0.22536
G1 X74.186 Y44.889 E0.23483
G1 X75.284 Y44.106 E0.25581
G1 X75.816 Y43.774 E0.26557
G1 X76.998 Y43.133 E0.28649
G1 X77.505 Y42.897 E0.29519
G1 X78.716 Y42.419 E0.31545
G1 X79.313 Y42.223 E0.32523
G1 X80.614 Y41.882 E0.34616
G1 X81.212 Y41.764 E0.35564
G1 X82.526 Y41.586 E0.37628
G1 X83.077 Y41.545 E0.38488
G1 X83.711 Y41.517 E0.39475
G1 X84.797 Y41.5 E0.41165
G1 X135.293 Y41.5 E1.19741
G1 X136.037 Y41.509 E1.20899
G1 X137.096 Y41.555 E1.22548
G1 X138.371 Y41.695 E1.24544
G1 X138.956 Y41.794 E1.25467
G1 X140.247 Y42.093 E1.27529
G1 X140.824 Y42.264 E1.28466
G1 X142.065 Y42.715 E1.3052
G1 X142.643 Y42.965 E1.315
G1 X143.86 Y43.584 E1.33625
G1 X144.342 Y43.868 E1.34495
G1 X145.405 Y44.581 E1.36487
G1 X145.906 Y44.961 E1.37466
G1 X146.943 Y45.854 E1.39595
G1 X147.363 Y46.264 E1.40509
G1 X148.222 Y47.206 E1.42492
G1 X148.604 Y47.677 E1.43436
G1 X149.395 Y48.785 E1.45554
G1 X149.728 Y49.319 E1.46534
G1 X150.364 Y50.492 E1.4861
G1 X150.599 Y50.996 E1.49475
G1 X151.08 Y52.213 E1.51512
G1 X151.277 Y52.813 E1.52494
G1 X151.617 Y54.108 E1.54578
G1 X151.735 Y54.704 E1.55523
G1 X151.914 Y56.024 E1.57596
G1 X151.955 Y56.575 E1.58456
G1 X151.983 Y57.208 E1.59442
G1 X152 Y58.291 E1.61127
G1 X151.999 Y136.941 E2.83512
G1 X151.978 Y137.947 E2.85078
G1 X151.945 Y138.595 E2.86088
G1 X151.806 Y139.863 E2.88073
G1 X151.708 Y140.445 E2.88991
G1 X151.409 Y141.739 E2.91058
G1 X151.238 Y142.317 E2.91996
G1 X150.785 Y143.565 E2.94062
G1 X150.534 Y144.145 E2.95045
G1 X149.916 Y145.36 E2.97166
G1 X149.632 Y145.842 E2.98037
G1 X148.919 Y146.905 E3.00028
G1 X148.539 Y147.406 E3.01007
G1 X147.646 Y148.443 E3.03136
G1 X147.236 Y148.863 E3.0405
G1 X146.266 Y149.745 E3.0609
G1 X145.731 Y150.176 E3.07159
G1 X145.361 Y150.462 E3.07887
G1 X143.154 Y152.09 E3.12154
G1 X141.177 Y153.638 E3.16061
G1 X139.236 Y155.251 E3.19988
G1 X137.347 Y156.911 E3.23902
G1 X135.493 Y158.636 E3.27842
G1 X133.734 Y160.366 E3.31681
G1 X131.972 Y162.204 E3.35643
G1 X130.272 Y164.078 E3.3958
G1 X128.637 Y165.986 E3.4349
G1 X127.061 Y167.935 E3.47391
G1 X125.537 Y169.933 E3.51301
G1 X124.016 Y172.048 E3.55355
G1 X123.454 Y172.858 E3.56889
G1 X122.887 Y173.605 E3.58348
G1 X122.273 Y174.285 E3.59774
G1 X121.975 Y174.589 E3.60436
G1 X121.291 Y175.23 E3.61895
G1 X120.523 Y175.833 E3.63414
G1 X120.171 Y176.085 E3.64088
G1 X119.386 Y176.598 E3.65547
G1 X118.518 Y177.062 E3.67079
G1 X118.117 Y177.254 E3.6777
G1 X117.255 Y177.623 E3.69229
G1 X116.315 Y177.931 E3.70769
G1 X115.916 Y178.042 E3.71413
G1 X115.003 Y178.254 E3.72872
G1 X114.109 Y178.385 E3.74278
G1 X113.716 Y178.426 E3.74893
G1 X112.773 Y178.483 E3.76363
G1 X111.742 Y178.5 E3.77967
G1 X93.045 Y178.499 E4.07061
G1 X92.368 Y178.489 E4.08115
G1 X91.674 Y178.457 E4.09196
G1 X91.251 Y178.424 E4.09856
G1 X90.32 Y178.311 E4.11315
G1 X89.417 Y178.123 E4.1275
G1 X88.973 Y178.011 E4.13463
G1 X88.074 Y177.743 E4.14923
G1 X87.085 Y177.347 E4.16581
G1 X86.707 Y177.174 E4.17227
G1 X85.872 Y176.748 E4.18686
G1 X85.054 Y176.237 E4.20187
G1 X84.683 Y175.982 E4.20887
G1 X83.934 Y175.418 E4.22346
G1 X83.214 Y174.773 E4.23851
G1 X82.911 Y174.476 E4.24511
G1 X82.27 Y173.791 E4.25971
G1 X81.667 Y173.023 E4.2749
G1 X81.415 Y172.671 E4.28164
G1 X80.902 Y171.886 E4.29623
G1 X80.442 Y171.028 E4.31138
G1 X80.25 Y170.628 E4.31828
G1 X79.881 Y169.766 E4.33287
G1 X79.547 Y168.733 E4.34977
G1 X78.754 Y165.793 E4.39715
G1 X78.03 Y163.375 E4.43643
G1 X77.237 Y160.975 E4.47576
G1 X76.374 Y158.588 E4.51525
G1 X75.459 Y156.269 E4.55405
G1 X74.473 Y153.963 E4.59307
G1 X73.414 Y151.667 E4.63242
G1 X72.302 Y149.424 E4.67137
G1 X71.109 Y147.18 E4.71092
G1 X70.049 Y145.311 E4.74436
G1 X69.645 Y144.526 E4.75809
G1 X69.397 Y143.993 E4.76724
G1 X68.919 Y142.784 E4.78747
G1 X68.723 Y142.187 E4.79725
G1 X68.382 Y140.886 E4.81818
G1 X68.264 Y140.288 E4.82766
G1 X68.087 Y138.977 E4.84825
G1 X68.046 Y138.428 E4.85681
G1 X68.016 Y137.787 E4.8668
G1 X68 Y136.68 E4.88403
G1 X68.001 Y58.059 E6.10743
G0 F6000 X68.401 Y58.064
G1 F1200 X68.422 Y57.073 E6.12285
G1 X68.455 Y56.425 E6.13295
G1 X68.59 Y55.195 E6.1522
G1 X68.689 Y54.61 E6.16144
G1 X68.975 Y53.374 E6.18118
G1 X69.145 Y52.799 E6.19051
G1 X69.582 Y51.594 E6.21045
G1 X69.833 Y51.014 E6.22029
G1 X70.428 Y49.843 E6.24073
G1 X70.712 Y49.361 E6.24943
G1 X71.4 Y48.336 E6.26864
G1 X71.78 Y47.835 E6.27843
G1 X72.64 Y46.837 E6.29893
G1 X73.05 Y46.417 E6.30806
G1 X73.964 Y45.583 E6.32731
G1 X74.437 Y45.2 E6.33678
G1 X75.496 Y44.445 E6.35702
G1 X76.028 Y44.113 E6.36678
G1 X77.167 Y43.496 E6.38694
G1 X77.674 Y43.26 E6.39564
G1 X78.841 Y42.799 E6.41516
G1 X79.438 Y42.603 E6.42494
G1 X80.692 Y42.275 E6.44511
G1 X81.29 Y42.157 E6.4546
G1 X82.555 Y41.985 E6.47446
G1 X83.106 Y41.944 E6.48306
G1 X83.717 Y41.916 E6.49258
G1 X84.797 Y41.9 E6.50938
G1 X135.293 Y41.9 E7.29514
G1 X136.031 Y41.909 E7.30662
G1 X137.076 Y41.955 E7.3229
G1 X138.305 Y42.09 E7.34214
G1 X138.89 Y42.189 E7.35137
G1 X140.133 Y42.477 E7.37123
G1 X140.71 Y42.648 E7.38059
G1 X141.906 Y43.082 E7.40039
G1 X142.484 Y43.332 E7.41019
G1 X143.657 Y43.928 E7.43066
G1 X144.139 Y44.212 E7.43937
G1 X145.164 Y44.9 E7.45858
G1 X145.665 Y45.28 E7.46836
G1 X146.663 Y46.14 E7.48886
G1 X147.083 Y46.55 E7.498
G1 X147.912 Y47.458 E7.51713
G1 X148.294 Y47.929 E7.52657
G1 X149.055 Y48.997 E7.54697
G1 X149.388 Y49.531 E7.55676
G1 X150.001 Y50.661 E7.57677
G1 X150.236 Y51.165 E7.58542
G1 X150.7 Y52.337 E7.60504
G1 X150.897 Y52.937 E7.61486
G1 X151.224 Y54.185 E7.63494
G1 X151.342 Y54.781 E7.64439
G1 X151.515 Y56.053 E7.66437
G1 X151.556 Y56.604 E7.67297
G1 X151.584 Y57.214 E7.68247
G1 X151.6 Y58.291 E7.69923
G1 X151.599 Y136.936 E8.923
G1 X151.578 Y137.927 E8.93843
G1 X151.545 Y138.575 E8.94852
G1 X151.412 Y139.796 E8.96764
G1 X151.314 Y140.378 E8.97682
G1 X151.026 Y141.625 E8.99674
G1 X150.855 Y142.203 E9.00612
G1 X150.418 Y143.406 E9.02603
G1 X150.167 Y143.986 E9.03587
G1 X149.572 Y145.157 E9.0563
G1 X149.288 Y145.639 E9.06501
G1 X148.6 Y146.664 E9.08422
G1 X148.22 Y147.165 E9.094
G1 X147.36 Y148.163 E9.1145
G1 X146.95 Y148.583 E9.12364
G1 X146.015 Y149.434 E9.14331
G1 X145.48 Y149.865 E9.154
G1 X145.123 Y150.14 E9.16101
G1 X142.902 Y151.779 E9.20397
G1 X140.938 Y153.317 E9.24278
G1 X138.982 Y154.941 E9.28234
G1 X137.075 Y156.618 E9.32186
G1 X135.224 Y158.34 E9.3612
G1 X133.431 Y160.104 E9.40034
G1 X131.687 Y161.922 E9.43954
G1 X129.989 Y163.794 E9.47887
G1 X128.321 Y165.741 E9.51876
G1 X126.747 Y167.687 E9.55771
G1 X125.198 Y169.719 E9.59747
G1 X123.725 Y171.767 E9.63672
G1 X123.126 Y172.63 E9.65307
G1 X122.568 Y173.363 E9.6674
G1 X121.988 Y174.005 E9.68087
G1 X121.69 Y174.309 E9.68749
G1 X121.017 Y174.938 E9.70183
G1 X120.29 Y175.508 E9.7162
G1 X119.938 Y175.76 E9.72294
G1 X119.167 Y176.263 E9.73726
G1 X118.346 Y176.702 E9.75175
G1 X117.945 Y176.894 E9.75867
G1 X117.098 Y177.255 E9.77299
G1 X116.208 Y177.545 E9.78756
G1 X115.809 Y177.656 E9.79401
G1 X114.912 Y177.864 E9.80833
G1 X114.068 Y177.987 E9.82161
G1 X113.675 Y178.028 E9.82775
G1 X112.766 Y178.083 E9.84192
G1 X111.742 Y178.1 E9.85786
G1 X93.05 Y178.099 E10.14872
G1 X92.373 Y178.089 E10.15926
G1 X91.706 Y178.058 E10.16965
G1 X91.283 Y178.025 E10.17625
G1 X90.369 Y177.913 E10.19058
G1 X89.514 Y177.735 E10.20417
G1 X89.07 Y177.623 E10.21129
G1 X88.188 Y177.359 E10.22562
G1 X87.252 Y176.984 E10.24131
G1 X86.874 Y176.811 E10.24778
G1 X86.054 Y176.391 E10.26212
G1 X85.281 Y175.908 E10.2763
G1 X84.91 Y175.653 E10.28331
G1 X84.174 Y175.099 E10.29764
G1 X83.494 Y174.487 E10.31188
G1 X83.191 Y174.19 E10.31848
G1 X82.562 Y173.518 E10.3328
G1 X81.992 Y172.79 E10.34719
G1 X81.74 Y172.438 E10.35392
G1 X81.237 Y171.667 E10.36825
G1 X80.803 Y170.855 E10.38258
G1 X80.611 Y170.455 E10.38948
G1 X80.249 Y169.608 E10.40381
G1 X79.933 Y168.628 E10.41984
G1 X79.14 Y165.688 E10.46722
G1 X78.407 Y163.24 E10.50698
G1 X77.621 Y160.861 E10.54597
G1 X76.744 Y158.437 E10.58608
G1 X75.84 Y156.144 E10.62444
G1 X74.826 Y153.774 E10.66455
G1 X73.778 Y151.5 E10.70351
G1 X72.655 Y149.237 E10.74282
G1 X71.451 Y146.973 E10.78272
G1 X70.397 Y145.113 E10.81599
G1 X70.007 Y144.358 E10.82921
G1 X69.759 Y143.825 E10.83836
G1 X69.299 Y142.659 E10.85787
G1 X69.103 Y142.062 E10.86764
G1 X68.775 Y140.808 E10.88781
G1 X68.657 Y140.21 E10.8973
G1 X68.485 Y138.947 E10.91713
G1 X68.444 Y138.398 E10.9257
G1 X68.416 Y137.78 E10.93533
G1 X68.4 Y136.68 E10.95244
G1 X68.401 Y58.064 E12.17577
G0 F6000 X68.801 Y58.07
G1 F1200 X68.821 Y57.093 E12.19098
G1 X68.854 Y56.445 E12.20107
G1 X68.984 Y55.262 E12.21959
G1 X69.083 Y54.677 E12.22882
G1 X69.359 Y53.487 E12.24783
G1 X69.529 Y52.912 E12.25716
G1 X69.949 Y51.753 E12.27634
G1 X70.2 Y51.173 E12.28618
G1 X70.773 Y50.046 E12.30585
G1 X71.057 Y49.564 E12.31456
G1 X71.718 Y48.578 E12.33303
G1 X72.098 Y48.077 E12.34281
G1 X72.926 Y47.116 E12.36255
G1 X73.336 Y46.696 E12.37169
G1 X74.216 Y45.894 E12.39021
G1 X74.689 Y45.511 E12.39968
G1 X75.708 Y44.785 E12.41915
G1 X76.24 Y44.453 E12.42891
G1 X77.336 Y43.859 E12.44831
G1 X77.843 Y43.623 E12.45701
G1 X78.965 Y43.179 E12.47579
G1 X79.562 Y42.983 E12.48557
G1 X80.769 Y42.667 E12.50498
G1 X81.367 Y42.549 E12.51447
G1 X82.585 Y42.384 E12.53359
G1 X83.136 Y42.343 E12.54219
G1 X83.724 Y42.316 E12.55135
G1 X84.797 Y42.3 E12.56805
G1 X135.293 Y42.3 E13.3538
G1 X136.026 Y42.309 E13.36521
G1 X137.056 Y42.354 E13.38125
G1 X138.238 Y42.484 E13.39976
G1 X138.823 Y42.583 E13.40899
G1 X140.019 Y42.86 E13.42809
G1 X140.596 Y43.031 E13.43746
G1 X141.747 Y43.449 E13.45651
G1 X142.325 Y43.699 E13.46631
G1 X143.454 Y44.273 E13.48602
G1 X143.936 Y44.557 E13.49472
G1 X144.922 Y45.218 E13.5132
G1 X145.423 Y45.598 E13.52298
G1 X146.384 Y46.426 E13.54272
G1 X146.804 Y46.836 E13.55185
G1 X147.601 Y47.71 E13.57026
G1 X147.983 Y48.181 E13.5797
G1 X148.716 Y49.209 E13.59934
G1 X149.049 Y49.743 E13.60913
G1 X149.638 Y50.83 E13.62837
G1 X149.873 Y51.334 E13.63703
G1 X150.32 Y52.462 E13.65591
G1 X150.517 Y53.062 E13.66573
G1 X150.832 Y54.263 E13.68505
G1 X150.95 Y54.859 E13.69451
G1 X151.116 Y56.083 E13.71373
G1 X151.157 Y56.634 E13.72233
G1 X151.184 Y57.221 E13.73147
G1 X151.2 Y58.291 E13.74812
G1 X151.199 Y136.93 E14.9718
G1 X151.179 Y137.907 E14.98701
G1 X151.146 Y138.555 E14.99711
G1 X151.017 Y139.73 E15.0155
G1 X150.919 Y140.312 E15.02468
G1 X150.642 Y141.512 E15.04385
G1 X150.471 Y142.09 E15.05323
G1 X150.051 Y143.247 E15.07238
G1 X149.8 Y143.827 E15.08222
G1 X149.227 Y144.954 E15.10189
G1 X148.943 Y145.436 E15.11059
G1 X148.282 Y146.422 E15.12907
G1 X147.902 Y146.923 E15.13885
G1 X147.074 Y147.884 E15.15859
G1 X146.664 Y148.304 E15.16772
G1 X145.764 Y149.122 E15.18665
G1 X145.229 Y149.553 E15.19734
G1 X144.886 Y149.818 E15.20408
G1 X142.664 Y151.457 E15.24705
G1 X140.664 Y153.024 E15.28658
G1 X138.726 Y154.634 E15.32579
G1 X136.803 Y156.324 E15.36563
G1 X134.953 Y158.045 E15.40494
G1 X133.162 Y159.807 E15.44404
G1 X131.367 Y161.678 E15.48439
G1 X129.689 Y163.528 E15.52325
G1 X128.022 Y165.474 E15.56312
G1 X126.434 Y167.438 E15.60242
G1 X124.883 Y169.472 E15.64223
G1 X123.385 Y171.556 E15.68216
G1 X122.797 Y172.402 E15.6982
G1 X122.25 Y173.12 E15.71224
G1 X121.702 Y173.725 E15.72494
G1 X121.404 Y174.029 E15.73157
G1 X120.744 Y174.646 E15.74563
G1 X120.058 Y175.183 E15.75918
G1 X119.706 Y175.435 E15.76592
G1 X118.949 Y175.927 E15.77997
G1 X118.173 Y176.341 E15.79365
G1 X117.772 Y176.533 E15.80057
G1 X116.941 Y176.886 E15.81462
G1 X116.101 Y177.16 E15.82837
G1 X115.702 Y177.271 E15.83482
G1 X114.822 Y177.474 E15.84887
G1 X114.026 Y177.589 E15.86138
G1 X113.633 Y177.63 E15.86753
G1 X112.759 Y177.683 E15.88116
G1 X111.742 Y177.7 E15.89698
G1 X93.056 Y177.699 E16.18775
G1 X92.379 Y177.689 E16.19829
G1 X91.737 Y177.659 E16.20829
G1 X91.314 Y177.626 E16.21489
G1 X90.417 Y177.516 E16.22895
G1 X89.612 Y177.347 E16.24175
G1 X89.168 Y177.235 E16.24888
G1 X88.303 Y176.976 E16.26293
G1 X87.418 Y176.62 E16.27777
G1 X87.04 Y176.447 E16.28424
G1 X86.236 Y176.035 E16.2983
G1 X85.507 Y175.578 E16.31169
G1 X85.136 Y175.323 E16.31869
G1 X84.415 Y174.779 E16.33275
G1 X83.774 Y174.201 E16.34618
G1 X83.471 Y173.904 E16.35278
G1 X82.855 Y173.244 E16.36683
G1 X82.317 Y172.558 E16.38039
G1 X82.065 Y172.206 E16.38713
G1 X81.573 Y171.449 E16.40118
G1 X81.163 Y170.682 E16.41471
G1 X80.971 Y170.282 E16.42162
G1 X80.617 Y169.451 E16.43567
G1 X80.319 Y168.524 E16.45082
G1 X79.523 Y165.574 E16.49837
G1 X78.787 Y163.115 E16.53831
G1 X77.991 Y160.705 E16.57781
G1 X77.13 Y158.325 E16.61719
G1 X76.209 Y155.989 E16.65626
G1 X75.199 Y153.628 E16.69622
G1 X74.141 Y151.334 E16.73553
G1 X73.009 Y149.051 E16.77518
G1 X71.794 Y146.767 E16.81544
G1 X70.745 Y144.916 E16.84855
G1 X70.37 Y144.189 E16.86128
G1 X70.122 Y143.656 E16.87042
G1 X69.679 Y142.535 E16.88918
G1 X69.483 Y141.938 E16.89896
G1 X69.167 Y140.731 E16.91837
G1 X69.049 Y140.133 E16.92786
G1 X68.884 Y138.918 E16.94694
G1 X68.843 Y138.369 E16.9555
G1 X68.816 Y137.774 E16.96477
G1 X68.8 Y136.68 E16.9818
G1 X68.801 Y58.07 E18.20503
G1 F1500 E11.70503
;MESH:Card_Divider.stl
G0 F6000 X78.376 Y138.185
G0 X78.499 Y138.855
G0 X78.703 Y139.51
G0 X89.758 Y166.583
G0 X90.074 Y167.035
G0 X90.465 Y167.426
G0 X90.917 Y167.742
G0 X91.417 Y167.975
G0 X91.95 Y168.119
G0 X112.49 Y168.165
G0 X112.49 Y167.3
;TYPE:WALL-OUTER
G1 F1500 E18.20503
G1 F1200 X112.898 Y167.264 E18.2114
G1 X113.288 Y167.159 E18.21769
G1 X113.65 Y166.99 E18.2239
G1 X113.975 Y166.762 E18.23008
G1 X114.262 Y166.475 E18.2364
G1 X114.49 Y166.15 E18.24257
G1 X114.661 Y165.784 E18.24886
G1 X114.764 Y165.398 E18.25508
G1 X114.8 Y164.99 E18.26145
G1 X114.8 Y144.976 E18.57288
G1 X114.841 Y144.527 E18.5799
G1 X114.957 Y144.093 E18.58689
G1 X115.151 Y143.667 E18.59417
G1 X115.421 Y143.279 E18.60153
G1 X115.753 Y142.943 E18.60888
G1 X115.961 Y142.793 E18.61287
G1 X116.167 Y142.651 E18.61676
G1 X116.577 Y142.462 E18.62379
G1 X117.01 Y142.344 E18.63077
G1 X117.482 Y142.3 E18.63815
G1 X135.992 Y142.3 E18.92618
G1 X136.579 Y142.264 E18.93533
G1 X137.147 Y142.159 E18.94432
G1 X137.704 Y141.986 E18.95339
G1 X138.229 Y141.749 E18.96236
G1 X138.725 Y141.45 E18.97137
G1 X139.184 Y141.09 E18.98045
G1 X139.592 Y140.682 E18.98942
G1 X139.95 Y140.225 E18.99846
G1 X140.249 Y139.729 E19.00747
G1 X140.488 Y139.201 E19.01649
G1 X140.659 Y138.647 E19.02551
G1 X140.764 Y138.079 E19.0345
G1 X140.8 Y137.492 E19.04365
G1 X140.8 Y57.508 E20.28826
G1 X140.764 Y56.919 E20.29744
G1 X140.659 Y56.351 E20.30643
G1 X140.486 Y55.796 E20.31548
G1 X140.249 Y55.271 E20.32444
G1 X139.95 Y54.775 E20.33345
G1 X139.59 Y54.316 E20.34253
G1 X139.182 Y53.908 E20.35151
G1 X138.725 Y53.55 E20.36054
G1 X138.229 Y53.251 E20.36955
G1 X137.704 Y53.014 E20.37852
G1 X137.147 Y52.841 E20.38759
G1 X136.579 Y52.736 E20.39658
G1 X135.992 Y52.7 E20.40573
