;FLAVOR:Marlin
;TIME:3924
;Filament used: 2.22928m
;Layer height: 0.2
;MINX:86.25
;MINY:59.7
;MINZ:0.2
;MAXX:151.273
;MAXY:111.3
;MAXZ:20
;Generated with Cura_SteamEngine 4.8.0
M140 S50
M105
M190 S50
M104 S200
M105
M109 S200
M82 ;absolute extrusion mode
; Ender 3 Custom Start G-code
G92 E0 ; Reset Extruder
G28 ; Home all axes
G1 Z2.0 F3000 ; Move Z Axis up little to prevent scratching of Heat Bed
G1 X0.1 Y20 Z0.3 F5000.0 ; Move to start position
G1 X0.1 Y200.0 Z0.3 F1500.0 E15 ; Draw the first line
G1 X0.4 Y200.0 Z0.3 F5000.0 ; Move to side a little
G1 X0.4 Y20 Z0.3 F1500.0 E30 ; Draw the second line
G92 E0 ; Reset Extruder
G1 Z2.0 F3000 ; Move Z Axis up little to prevent scratching of Heat Bed
G1 X5 Y20 Z0.3 F5000.0 ; Move over to prevent blob squish
G92 E0
G92 E0
G1 F2700 E-5
;LAYER_COUNT:100
;LAYER:0
M107
G0 F6000 X87.363 Y77.43 Z0.2
;TYPE:SKIRT
G1 F2700 E0
G1 F1200 X87.48 Y77.313 E0.0055
G1 X87.897 Y76.953 E0.02383
G1 X88.361 Y76.656 E0.04215
G1 X88.864 Y76.43 E0.06049
G1 X89.394 Y76.279 E0.07882
G1 X90.167 Y76.2 E0.10466
G1 X95.26 Y76.2 E0.27406
G1 X95.81 Y76.24 E0.2924
G1 X95.948 Y76.271 E0.2971
G1 X96.639 Y76.2 E0.32021
G1 X98.305 Y76.2 E0.37562
G1 X98.673 Y76.227 E0.38789
G1 X98.673 Y63.617 E0.8073
G1 X98.713 Y63.067 E0.82564
G1 X98.832 Y62.529 E0.84397
G1 X99.028 Y62.014 E0.8623
G1 X99.296 Y61.533 E0.88061
G1 X99.786 Y60.93 E0.90645
G1 X99.903 Y60.813 E0.91196
G1 X100.32 Y60.453 E0.93028
G1 X100.784 Y60.156 E0.9486
G1 X101.287 Y59.93 E0.96694
G1 X101.817 Y59.779 E0.98527
G1 X102.59 Y59.7 E1.01112
G1 X147.356 Y59.7 E2.50004
G1 X147.906 Y59.74 E2.51838
G1 X148.444 Y59.859 E2.53671
G1 X148.959 Y60.055 E2.55504
G1 X149.44 Y60.323 E2.57335
G1 X150.043 Y60.813 E2.59919
G1 X150.16 Y60.93 E2.6047
G1 X150.52 Y61.347 E2.62302
G1 X150.817 Y61.811 E2.64134
G1 X151.043 Y62.314 E2.65968
G1 X151.194 Y62.844 E2.67801
G1 X151.273 Y63.617 E2.70386
G1 X151.273 Y78.383 E3.19498
G1 X151.233 Y78.933 E3.21332
G1 X151.114 Y79.471 E3.23164
G1 X150.918 Y79.986 E3.24997
G1 X150.65 Y80.467 E3.26828
G1 X150.16 Y81.07 E3.29413
G1 X150.043 Y81.187 E3.29963
G1 X149.626 Y81.547 E3.31795
G1 X149.162 Y81.844 E3.33628
G1 X148.659 Y82.07 E3.35462
G1 X148.129 Y82.221 E3.37295
G1 X147.356 Y82.3 E3.39879
G1 X142.59 Y82.3 E3.55731
G1 X142.04 Y82.26 E3.57565
G1 X141.502 Y82.141 E3.59398
G1 X140.987 Y81.945 E3.6123
G1 X140.506 Y81.677 E3.63062
G1 X139.903 Y81.187 E3.65646
G1 X139.786 Y81.07 E3.66196
G1 X139.426 Y80.653 E3.68029
G1 X139.129 Y80.189 E3.69861
G1 X138.903 Y79.686 E3.71695
G1 X138.752 Y79.156 E3.73528
G1 X138.673 Y78.383 E3.76113
G1 X138.673 Y72.3 E3.96345
G1 X111.273 Y72.3 E4.87477
G1 X111.273 Y98.7 E5.75284
G1 X138.673 Y98.7 E6.66417
G1 X138.673 Y92.617 E6.86649
G1 X138.713 Y92.067 E6.88483
G1 X138.832 Y91.529 E6.90316
G1 X139.028 Y91.014 E6.92149
G1 X139.296 Y90.533 E6.9398
G1 X139.786 Y89.93 E6.96564
G1 X139.903 Y89.813 E6.97115
G1 X140.32 Y89.453 E6.98947
G1 X140.784 Y89.156 E7.00779
G1 X141.287 Y88.93 E7.02613
G1 X141.817 Y88.779 E7.04446
G1 X142.59 Y88.7 E7.07031
G1 X147.356 Y88.7 E7.22882
G1 X147.906 Y88.74 E7.24717
G1 X148.444 Y88.859 E7.26549
G1 X148.959 Y89.055 E7.28382
G1 X149.44 Y89.323 E7.30213
G1 X150.043 Y89.813 E7.32798
G1 X150.16 Y89.93 E7.33348
G1 X150.52 Y90.347 E7.3518
G1 X150.817 Y90.811 E7.37013
G1 X151.043 Y91.314 E7.38847
G1 X151.194 Y91.844 E7.4068
G1 X151.273 Y92.617 E7.43264
G1 X151.273 Y107.383 E7.92376
G1 X151.233 Y107.933 E7.9421
G1 X151.114 Y108.471 E7.96043
G1 X150.918 Y108.986 E7.97876
G1 X150.65 Y109.467 E7.99707
G1 X150.16 Y110.07 E8.02291
G1 X150.043 Y110.187 E8.02841
G1 X149.626 Y110.547 E8.04674
G1 X149.162 Y110.844 E8.06506
G1 X148.659 Y111.07 E8.0834
G1 X148.129 Y111.221 E8.10173
G1 X147.356 Y111.3 E8.12758
G1 X102.59 Y111.3 E9.6165
G1 X102.04 Y111.26 E9.63484
G1 X101.502 Y111.141 E9.65317
G1 X100.987 Y110.945 E9.67149
G1 X100.506 Y110.677 E9.68981
G1 X99.903 Y110.187 E9.71565
G1 X99.786 Y110.07 E9.72115
G1 X99.426 Y109.653 E9.73948
G1 X99.129 Y109.189 E9.7578
G1 X98.903 Y108.686 E9.77614
G1 X98.752 Y108.156 E9.79447
G1 X98.673 Y107.383 E9.82031
G1 X98.673 Y93.762 E10.27335
G1 X98.306 Y93.8 E10.28562
G1 X96.64 Y93.8 E10.34103
G1 X96.09 Y93.76 E10.35938
G1 X95.939 Y93.739 E10.36445
G1 X95.261 Y93.8 E10.38709
G1 X90.183 Y93.8 E10.55598
G1 X89.633 Y93.76 E10.57432
G1 X89.095 Y93.641 E10.59265
G1 X88.58 Y93.445 E10.61098
G1 X88.099 Y93.177 E10.62929
G1 X87.496 Y92.687 E10.65513
G1 X87.364 Y92.555 E10.66134
G1 X87.004 Y92.138 E10.67967
G1 X86.707 Y91.674 E10.69799
G1 X86.481 Y91.171 E10.71633
G1 X86.33 Y90.641 E10.73466
G1 X86.251 Y89.868 E10.7605
G1 X86.25 Y80.117 E11.08482
G1 X86.29 Y79.568 E11.10313
G1 X86.409 Y79.03 E11.12146
G1 X86.604 Y78.515 E11.13977
G1 X86.872 Y78.033 E11.15812
G1 X87.363 Y77.43 E11.18398
G0 F6000 X87.646 Y77.713
G1 F1200 X87.763 Y77.596 E11.18948
G1 X88.159 Y77.257 E11.20682
G1 X88.601 Y76.982 E11.22414
G1 X89.081 Y76.778 E11.24148
G1 X89.586 Y76.65 E11.25881
G1 X90.167 Y76.6 E11.27821
G1 X95.26 Y76.6 E11.4476
G1 X95.78 Y76.64 E11.46495
G1 X95.945 Y76.679 E11.47059
G1 X96.058 Y76.65 E11.47447
G1 X96.639 Y76.6 E11.49386
G1 X98.305 Y76.6 E11.54927
G1 X98.825 Y76.64 E11.56662
G1 X99.073 Y76.663 E11.5749
G1 X99.073 Y63.617 E12.00881
G1 X99.113 Y63.097 E12.02616
G1 X99.232 Y62.59 E12.04348
G1 X99.427 Y62.107 E12.06081
G1 X99.693 Y61.659 E12.07814
G1 X100.069 Y61.213 E12.09754
G1 X100.186 Y61.096 E12.10304
G1 X100.582 Y60.757 E12.12038
G1 X101.024 Y60.482 E12.13769
G1 X101.504 Y60.278 E12.15504
G1 X102.009 Y60.15 E12.17237
G1 X102.59 Y60.1 E12.19176
G1 X147.356 Y60.1 E13.68069
G1 X147.876 Y60.14 E13.69803
G1 X148.383 Y60.259 E13.71535
G1 X148.866 Y60.454 E13.73268
G1 X149.314 Y60.72 E13.75001
G1 X149.76 Y61.096 E13.76941
G1 X149.877 Y61.213 E13.77491
G1 X150.216 Y61.609 E13.79225
G1 X150.491 Y62.051 E13.80956
G1 X150.695 Y62.531 E13.82691
G1 X150.823 Y63.036 E13.84424
G1 X150.873 Y63.617 E13.86363
G1 X150.873 Y78.383 E14.35475
G1 X150.833 Y78.903 E14.3721
G1 X150.714 Y79.41 E14.38942
G1 X150.519 Y79.893 E14.40675
G1 X150.253 Y80.341 E14.42407
G1 X149.877 Y80.787 E14.44348
G1 X149.76 Y80.904 E14.44898
G1 X149.364 Y81.243 E14.46632
G1 X148.922 Y81.518 E14.48363
G1 X148.442 Y81.722 E14.50098
G1 X147.937 Y81.85 E14.51831
G1 X147.356 Y81.9 E14.5377
G1 X142.59 Y81.9 E14.69622
G1 X142.07 Y81.86 E14.71357
G1 X141.563 Y81.741 E14.73089
G1 X141.08 Y81.546 E14.74821
G1 X140.632 Y81.28 E14.76554
G1 X140.186 Y80.904 E14.78494
G1 X140.069 Y80.787 E14.79045
G1 X139.73 Y80.391 E14.80778
G1 X139.455 Y79.949 E14.8251
G1 X139.251 Y79.469 E14.84245
G1 X139.123 Y78.964 E14.85977
G1 X139.073 Y78.383 E14.87917
G1 X139.073 Y71.9 E15.09479
G1 X110.873 Y71.9 E16.03273
G1 X110.873 Y99.1 E16.93741
G1 X139.073 Y99.1 E17.87534
G1 X139.073 Y92.617 E18.09097
G1 X139.113 Y92.097 E18.10831
G1 X139.232 Y91.59 E18.12563
G1 X139.427 Y91.107 E18.14296
G1 X139.693 Y90.659 E18.16029
G1 X140.069 Y90.213 E18.17969
G1 X140.186 Y90.096 E18.18519
G1 X140.582 Y89.757 E18.20253
G1 X141.024 Y89.482 E18.21985
G1 X141.504 Y89.278 E18.23719
G1 X142.009 Y89.15 E18.25452
G1 X142.59 Y89.1 E18.27392
G1 X147.356 Y89.1 E18.43243
G1 X147.876 Y89.14 E18.44978
G1 X148.383 Y89.259 E18.4671
G1 X148.866 Y89.454 E18.48443
G1 X149.314 Y89.72 E18.50175
G1 X149.76 Y90.096 E18.52116
G1 X149.877 Y90.213 E18.52666
G1 X150.216 Y90.609 E18.544
G1 X150.491 Y91.051 E18.56131
G1 X150.695 Y91.531 E18.57866
G1 X150.823 Y92.036 E18.59599
G1 X150.873 Y92.617 E18.61538
G1 X150.873 Y107.383 E19.1065
G1 X150.833 Y107.903 E19.12385
G1 X150.714 Y108.41 E19.14117
G1 X150.519 Y108.893 E19.15849
G1 X150.253 Y109.341 E19.17582
G1 X149.877 Y109.787 E19.19522
G1 X149.76 Y109.904 E19.20073
G1 X149.364 Y110.243 E19.21807
G1 X148.922 Y110.518 E19.23538
G1 X148.442 Y110.722 E19.25273
G1 X147.937 Y110.85 E19.27005
G1 X147.356 Y110.9 E19.28945
G1 X102.59 Y110.9 E20.77837
G1 X102.07 Y110.86 E20.79572
G1 X101.563 Y110.741 E20.81304
G1 X101.08 Y110.546 E20.83037
G1 X100.632 Y110.28 E20.84769
G1 X100.186 Y109.904 E20.8671
G1 X100.069 Y109.787 E20.8726
G1 X99.73 Y109.391 E20.88994
G1 X99.455 Y108.949 E20.90725
G1 X99.251 Y108.469 E20.9246
G1 X99.123 Y107.964 E20.94193
G1 X99.073 Y107.383 E20.96132
G1 X99.073 Y93.338 E21.42846
G1 X98.887 Y93.35 E21.43466
G1 X98.306 Y93.4 E21.45406
G1 X96.64 Y93.4 E21.50947
G1 X96.12 Y93.36 E21.52681
G1 X95.964 Y93.327 E21.53212
G1 X95.261 Y93.4 E21.55562
G1 X90.183 Y93.4 E21.72452
G1 X89.663 Y93.36 E21.74187
G1 X89.156 Y93.241 E21.75919
G1 X88.673 Y93.046 E21.77651
G1 X88.225 Y92.78 E21.79384
G1 X87.779 Y92.404 E21.81324
G1 X87.647 Y92.272 E21.81945
G1 X87.308 Y91.876 E21.83679
G1 X87.033 Y91.434 E21.8541
G1 X86.829 Y90.954 E21.87145
G1 X86.701 Y90.449 E21.88878
G1 X86.651 Y89.868 E21.90817
G1 X86.65 Y80.117 E22.23249
G1 X86.69 Y79.598 E22.24981
G1 X86.809 Y79.09 E22.26716
G1 X87.004 Y78.607 E22.28448
G1 X87.27 Y78.159 E22.30181
G1 X87.646 Y77.713 E22.32122
G0 F6000 X87.929 Y77.996
G1 F1200 X88.046 Y77.879 E22.32672
G1 X88.419 Y77.562 E22.343
G1 X88.839 Y77.31 E22.35929
G1 X89.294 Y77.13 E22.37556
G1 X89.772 Y77.026 E22.39184
G1 X90.167 Y77 E22.405
G1 X95.26 Y77 E22.5744
G1 X95.748 Y77.04 E22.59068
G1 X95.949 Y77.09 E22.59757
G1 X96.244 Y77.026 E22.60761
G1 X96.639 Y77 E22.62078
G1 X98.305 Y77 E22.67619
G1 X98.793 Y77.04 E22.69247
G1 X98.992 Y77.081 E22.69923
G1 X99.473 Y77.025 E22.71534
G1 X99.473 Y63.617 E23.16129
G1 X99.513 Y63.129 E23.17757
G1 X99.632 Y62.654 E23.19386
G1 X99.826 Y62.205 E23.21013
G1 X100.091 Y61.793 E23.22642
G1 X100.352 Y61.496 E23.23957
G1 X100.469 Y61.379 E23.24508
G1 X100.842 Y61.062 E23.26136
G1 X101.262 Y60.81 E23.27765
G1 X101.717 Y60.63 E23.29392
G1 X102.195 Y60.526 E23.31019
G1 X102.59 Y60.5 E23.32336
G1 X147.356 Y60.5 E24.81228
G1 X147.844 Y60.54 E24.82857
G1 X148.319 Y60.659 E24.84485
G1 X148.768 Y60.853 E24.86112
G1 X149.18 Y61.118 E24.87742
G1 X149.477 Y61.379 E24.89057
G1 X149.594 Y61.496 E24.89607
G1 X149.911 Y61.869 E24.91235
G1 X150.163 Y62.289 E24.92864
G1 X150.343 Y62.744 E24.94492
G1 X150.447 Y63.222 E24.96119
G1 X150.473 Y63.617 E24.97435
G1 X150.473 Y78.383 E25.46547
G1 X150.433 Y78.871 E25.48176
G1 X150.314 Y79.346 E25.49804
G1 X150.12 Y79.795 E25.51431
G1 X149.855 Y80.207 E25.5306
G1 X149.594 Y80.504 E25.54376
G1 X149.477 Y80.621 E25.54926
G1 X149.104 Y80.938 E25.56554
G1 X148.684 Y81.19 E25.58183
G1 X148.229 Y81.37 E25.5981
G1 X147.751 Y81.474 E25.61438
G1 X147.356 Y81.5 E25.62754
G1 X142.59 Y81.5 E25.78606
G1 X142.102 Y81.46 E25.80234
G1 X141.627 Y81.341 E25.81863
G1 X141.178 Y81.147 E25.8349
G1 X140.766 Y80.882 E25.85119
G1 X140.469 Y80.621 E25.86434
G1 X140.352 Y80.504 E25.86985
G1 X140.035 Y80.131 E25.88613
G1 X139.783 Y79.711 E25.90242
G1 X139.603 Y79.256 E25.91869
G1 X139.499 Y78.778 E25.93496
G1 X139.473 Y78.383 E25.94813
G1 X139.473 Y71.5 E26.17706
G1 X110.473 Y71.5 E27.1416
G1 X110.473 Y99.5 E28.07289
G1 X139.473 Y99.5 E29.03743
G1 X139.473 Y92.617 E29.26636
G1 X139.513 Y92.129 E29.28265
G1 X139.632 Y91.654 E29.29893
G1 X139.826 Y91.205 E29.3152
G1 X140.091 Y90.793 E29.33149
G1 X140.352 Y90.496 E29.34464
G1 X140.469 Y90.379 E29.35015
G1 X140.842 Y90.062 E29.36643
G1 X141.262 Y89.81 E29.38272
G1 X141.717 Y89.63 E29.39899
G1 X142.195 Y89.526 E29.41526
G1 X142.59 Y89.5 E29.42843
G1 X147.356 Y89.5 E29.58695
G1 X147.844 Y89.54 E29.60323
G1 X148.319 Y89.659 E29.61952
G1 X148.768 Y89.853 E29.63579
G1 X149.18 Y90.118 E29.65208
G1 X149.477 Y90.379 E29.66523
G1 X149.594 Y90.496 E29.67074
G1 X149.911 Y90.869 E29.68702
G1 X150.163 Y91.289 E29.70331
G1 X150.343 Y91.744 E29.71958
G1 X150.447 Y92.222 E29.73585
G1 X150.473 Y92.617 E29.74902
G1 X150.473 Y107.383 E30.24014
G1 X150.433 Y107.871 E30.25642
G1 X150.314 Y108.346 E30.27271
G1 X150.12 Y108.795 E30.28898
G1 X149.855 Y109.207 E30.30527
G1 X149.594 Y109.504 E30.31842
G1 X149.477 Y109.621 E30.32392
G1 X149.104 Y109.938 E30.34021
G1 X148.684 Y110.19 E30.3565
G1 X148.229 Y110.37 E30.37277
G1 X147.751 Y110.474 E30.38904
G1 X147.356 Y110.5 E30.40221
G1 X102.59 Y110.5 E31.89113
G1 X102.102 Y110.46 E31.90742
G1 X101.627 Y110.341 E31.9237
G1 X101.178 Y110.147 E31.93997
G1 X100.766 Y109.882 E31.95626
G1 X100.469 Y109.621 E31.96941
G1 X100.352 Y109.504 E31.97492
G1 X100.035 Y109.131 E31.9912
G1 X99.783 Y108.711 E32.00749
G1 X99.603 Y108.256 E32.02376
G1 X99.499 Y107.778 E32.04003
G1 X99.473 Y107.383 E32.0532
G1 X99.473 Y92.983 E32.53215
G1 X99.197 Y92.96 E32.54136
G1 X98.996 Y92.91 E32.54825
G1 X98.701 Y92.974 E32.55829
G1 X98.306 Y93 E32.57145
G1 X96.64 Y93 E32.62687
G1 X96.152 Y92.96 E32.64315
G1 X95.953 Y92.919 E32.64991
G1 X95.261 Y93 E32.67308
G1 X90.183 Y93 E32.84198
G1 X89.695 Y92.96 E32.85826
G1 X89.22 Y92.841 E32.87455
G1 X88.771 Y92.647 E32.89082
G1 X88.359 Y92.382 E32.90711
G1 X88.062 Y92.121 E32.92026
G1 X87.93 Y91.989 E32.92647
G1 X87.613 Y91.616 E32.94275
G1 X87.361 Y91.196 E32.95904
G1 X87.181 Y90.741 E32.97532
G1 X87.077 Y90.263 E32.99159
G1 X87.051 Y89.868 E33.00475
G1 X87.05 Y80.117 E33.32907
G1 X87.09 Y79.629 E33.34536
G1 X87.209 Y79.155 E33.36161
G1 X87.403 Y78.705 E33.37791
G1 X87.668 Y78.294 E33.39418
G1 X87.929 Y77.996 E33.40735
G0 F6000 X88.212 Y78.279
G1 F1200 X88.329 Y78.162 E33.41285
G1 X88.678 Y77.869 E33.42801
G1 X89.073 Y77.642 E33.44316
G1 X89.501 Y77.487 E33.4583
G1 X90.167 Y77.4 E33.48064
G1 X95.26 Y77.4 E33.65004
G1 X95.714 Y77.44 E33.6652
G1 X95.973 Y77.487 E33.67395
G1 X96.639 Y77.4 E33.69629
G1 X98.305 Y77.4 E33.7517
G1 X98.759 Y77.44 E33.76686
G1 X98.984 Y77.5 E33.7746
G1 X99.039 Y77.481 E33.77654
G1 X99.684 Y77.4 E33.79816
G1 X99.873 Y77.4 E33.80445
G1 X99.873 Y63.617 E34.26287
G1 X99.913 Y63.163 E34.27803
G1 X100.031 Y62.723 E34.29318
G1 X100.225 Y62.311 E34.30833
G1 X100.635 Y61.779 E34.33067
G1 X100.752 Y61.662 E34.33617
G1 X101.101 Y61.369 E34.35133
G1 X101.496 Y61.142 E34.36648
G1 X101.924 Y60.987 E34.38162
G1 X102.59 Y60.9 E34.40396
G1 X147.356 Y60.9 E35.89288
G1 X147.81 Y60.94 E35.90804
G1 X148.25 Y61.058 E35.92319
G1 X148.662 Y61.252 E35.93834
G1 X149.194 Y61.662 E35.96068
G1 X149.311 Y61.779 E35.96618
G1 X149.604 Y62.128 E35.98134
G1 X149.831 Y62.523 E35.99649
G1 X149.986 Y62.951 E36.01163
G1 X150.073 Y63.617 E36.03397
G1 X150.073 Y78.383 E36.52509
G1 X150.033 Y78.837 E36.54025
G1 X149.915 Y79.277 E36.5554
G1 X149.721 Y79.689 E36.57055
G1 X149.311 Y80.221 E36.59289
G1 X149.194 Y80.338 E36.59839
G1 X148.845 Y80.631 E36.61355
G1 X148.45 Y80.858 E36.6287
G1 X148.022 Y81.013 E36.64384
G1 X147.356 Y81.1 E36.66618
G1 X142.59 Y81.1 E36.8247
G1 X142.136 Y81.06 E36.83985
G1 X141.696 Y80.942 E36.85501
G1 X141.284 Y80.748 E36.87015
G1 X140.752 Y80.338 E36.89249
G1 X140.635 Y80.221 E36.89799
G1 X140.342 Y79.872 E36.91315
G1 X140.115 Y79.477 E36.9283
G1 X139.96 Y79.049 E36.94344
G1 X139.873 Y78.383 E36.96578
G1 X139.873 Y71.1 E37.20802
G1 X110.073 Y71.1 E38.19917
G1 X110.073 Y99.9 E39.15706
G1 X139.873 Y99.9 E40.14821
G1 X139.873 Y92.617 E40.39045
G1 X139.913 Y92.163 E40.4056
G1 X140.031 Y91.723 E40.42076
G1 X140.225 Y91.311 E40.4359
G1 X140.635 Y90.779 E40.45824
G1 X140.752 Y90.662 E40.46375
G1 X141.101 Y90.369 E40.4789
G1 X141.496 Y90.142 E40.49405
G1 X141.924 Y89.987 E40.50919
G1 X142.59 Y89.9 E40.53153
G1 X147.356 Y89.9 E40.69005
G1 X147.81 Y89.94 E40.70521
G1 X148.25 Y90.058 E40.72036
G1 X148.662 Y90.252 E40.73551
G1 X149.194 Y90.662 E40.75785
G1 X149.311 Y90.779 E40.76335
G1 X149.604 Y91.128 E40.77851
G1 X149.831 Y91.523 E40.79366
G1 X149.986 Y91.951 E40.8088
G1 X150.073 Y92.617 E40.83114
G1 X150.073 Y107.383 E41.32226
G1 X150.033 Y107.837 E41.33742
G1 X149.915 Y108.277 E41.35257
G1 X149.721 Y108.689 E41.36771
G1 X149.311 Y109.221 E41.39005
G1 X149.194 Y109.338 E41.39556
G1 X148.845 Y109.631 E41.41071
G1 X148.45 Y109.858 E41.42587
G1 X148.022 Y110.013 E41.44101
G1 X147.356 Y110.1 E41.46335
G1 X102.59 Y110.1 E42.95227
G1 X102.136 Y110.06 E42.96743
G1 X101.696 Y109.942 E42.98258
G1 X101.284 Y109.748 E42.99773
G1 X100.752 Y109.338 E43.02006
G1 X100.635 Y109.221 E43.02557
G1 X100.342 Y108.872 E43.04072
G1 X100.115 Y108.477 E43.05588
G1 X99.96 Y108.049 E43.07102
G1 X99.873 Y107.383 E43.09336
G1 X99.873 Y92.6 E43.58504
G1 X99.685 Y92.6 E43.59129
G1 X99.231 Y92.56 E43.60645
G1 X98.972 Y92.513 E43.61521
