;FLAVOR:Marlin
;TIME:2091
;Filament used: 0.548992m
;Layer height: 0.12
;MINX:103.911
;MINY:105.9
;MINZ:0.12
;MAXX:131.089
;MAXY:129.1
;MAXZ:7.44
;Generated with Cura_SteamEngine 4.8.0
M140 S50
M105
M190 S50
M104 S200
M105
M109 S200
M82 ;absolute extrusion mode
; Ender 3 Custom Start G-code
G92 E0 ; Reset Extruder
G28 ; Home all axes
G1 Z2.0 F3000 ; Move Z Axis up little to prevent scratching of Heat Bed
G1 X0.1 Y20 Z0.3 F5000.0 ; Move to start position
G1 X0.1 Y200.0 Z0.3 F1500.0 E15 ; Draw the first line
G1 X0.4 Y200.0 Z0.3 F5000.0 ; Move to side a little
G1 X0.4 Y20 Z0.3 F1500.0 E30 ; Draw the second line
G92 E0 ; Reset Extruder
G1 Z2.0 F3000 ; Move Z Axis up little to prevent scratching of Heat Bed
G1 X5 Y20 Z0.3 F5000.0 ; Move over to prevent blob squish
G92 E0
G92 E0
G1 F2700 E-5
;LAYER_COUNT:62
;LAYER:0
M107
G0 F6000 X105.553 Y107.562 Z0.12
;TYPE:SKIRT
G1 F2700 E0
G1 F1200 X105.859 Y107.277 E0.01001
G1 X106.453 Y106.829 E0.02783
G1 X106.839 Y106.596 E0.03863
G1 X107.512 Y106.279 E0.05644
G1 X107.78 Y106.189 E0.06321
G1 X108.014 Y106.118 E0.06907
G1 X108.627 Y105.989 E0.08407
G1 X109.057 Y105.937 E0.09444
G1 X109.35 Y105.914 E0.10148
G1 X109.6 Y105.905 E0.10747
G1 X110.012 Y105.9 E0.11734
G1 X124.85 Y105.9 E0.47267
G1 X125.548 Y105.91 E0.48939
G1 X125.891 Y105.929 E0.49761
G1 X126.296 Y105.974 E0.50737
G1 X126.907 Y106.103 E0.52232
G1 X127.331 Y106.232 E0.53294
G1 X128.037 Y106.532 E0.55131
G1 X128.392 Y106.73 E0.56104
G1 X128.992 Y107.151 E0.57859
G1 X129.302 Y107.419 E0.58841
G1 X129.818 Y107.969 E0.60647
G1 X130.064 Y108.294 E0.61623
G1 X130.452 Y108.935 E0.63417
G1 X130.633 Y109.32 E0.64436
G1 X130.88 Y110.029 E0.66234
G1 X130.973 Y110.425 E0.67208
G1 X131.067 Y111.175 E0.69018
G1 X131.089 Y112.278 E0.7166
G1 X131.089 Y123.052 E0.97461
G1 X131.08 Y123.7 E0.99013
G1 X131.016 Y124.327 E1.00522
G1 X130.934 Y124.755 E1.01566
G1 X130.716 Y125.475 E1.03367
G1 X130.559 Y125.848 E1.04336
G1 X130.187 Y126.521 E1.06178
G1 X129.939 Y126.874 E1.07211
G1 X129.447 Y127.438 E1.09003
G1 X129.141 Y127.723 E1.10005
G1 X128.547 Y128.171 E1.11786
G1 X128.161 Y128.404 E1.12866
G1 X127.488 Y128.721 E1.14647
G1 X127.22 Y128.811 E1.15324
G1 X126.986 Y128.882 E1.1591
G1 X126.373 Y129.011 E1.1741
G1 X125.943 Y129.063 E1.18447
G1 X125.65 Y129.086 E1.19151
G1 X125.4 Y129.095 E1.1975
G1 X124.988 Y129.1 E1.20737
G1 X110.15 Y129.1 E1.5627
G1 X109.453 Y129.09 E1.57939
G1 X109.11 Y129.071 E1.58762
G1 X108.707 Y129.027 E1.59733
G1 X108.09 Y128.896 E1.61243
G1 X107.667 Y128.767 E1.62302
G1 X106.963 Y128.468 E1.64134
G1 X106.608 Y128.27 E1.65107
G1 X106.006 Y127.848 E1.66868
G1 X105.693 Y127.577 E1.67859
G1 X105.175 Y127.024 E1.69674
G1 X104.932 Y126.702 E1.7064
G1 X104.547 Y126.062 E1.72429
G1 X104.365 Y125.674 E1.73455
G1 X104.119 Y124.966 E1.7525
G1 X104.027 Y124.573 E1.76216
G1 X103.933 Y123.824 E1.78024
G1 X103.911 Y122.7 E1.80716
G1 X103.911 Y111.948 E2.06464
G1 X103.92 Y111.3 E2.08016
G1 X103.984 Y110.673 E2.09526
G1 X104.066 Y110.245 E2.10569
G1 X104.284 Y109.525 E2.12371
G1 X104.441 Y109.152 E2.1334
G1 X104.813 Y108.479 E2.15181
G1 X105.061 Y108.126 E2.16214
G1 X105.553 Y107.562 E2.18007
G0 F6000 X105.826 Y107.854
G1 F1200 X106.132 Y107.569 E2.19008
G1 X106.659 Y107.171 E2.2059
G1 X107.045 Y106.938 E2.21669
G1 X107.644 Y106.657 E2.23254
G1 X107.896 Y106.572 E2.23891
G1 X108.13 Y106.501 E2.24476
G1 X108.675 Y106.386 E2.2581
G1 X109.105 Y106.334 E2.26847
G1 X109.365 Y106.313 E2.27472
G1 X109.605 Y106.305 E2.28047
G1 X110.017 Y106.3 E2.29034
G1 X124.844 Y106.3 E2.6454
G1 X125.542 Y106.31 E2.66212
G1 X125.863 Y106.328 E2.66982
G1 X126.247 Y106.371 E2.67907
G1 X126.79 Y106.486 E2.69236
G1 X127.214 Y106.615 E2.70298
G1 X127.842 Y106.881 E2.71931
G1 X128.197 Y107.079 E2.72904
G1 X128.731 Y107.453 E2.74466
G1 X129.041 Y107.721 E2.75447
G1 X129.499 Y108.211 E2.77053
G1 X129.745 Y108.536 E2.78029
G1 X130.09 Y109.106 E2.79625
G1 X130.271 Y109.491 E2.80644
G1 X130.49 Y110.12 E2.82239
G1 X130.583 Y110.516 E2.83213
G1 X130.667 Y111.183 E2.84823
G1 X130.689 Y112.278 E2.87445
G1 X130.689 Y123.046 E3.13232
G1 X130.68 Y123.694 E3.14784
G1 X130.623 Y124.252 E3.16127
G1 X130.541 Y124.68 E3.17171
G1 X130.347 Y125.319 E3.1877
G1 X130.19 Y125.692 E3.19739
G1 X129.859 Y126.291 E3.21378
G1 X129.611 Y126.644 E3.22411
G1 X129.174 Y127.146 E3.24005
G1 X128.868 Y127.431 E3.25006
G1 X128.341 Y127.829 E3.26588
G1 X127.955 Y128.062 E3.27667
G1 X127.356 Y128.343 E3.29252
G1 X127.104 Y128.428 E3.29889
G1 X126.87 Y128.499 E3.30474
G1 X126.325 Y128.614 E3.31808
G1 X125.895 Y128.666 E3.32845
G1 X125.635 Y128.687 E3.3347
G1 X125.395 Y128.695 E3.34045
G1 X124.983 Y128.7 E3.35032
G1 X110.156 Y128.7 E3.70538
G1 X109.459 Y128.69 E3.72208
G1 X109.138 Y128.672 E3.72978
G1 X108.755 Y128.63 E3.739
G1 X108.207 Y128.514 E3.75242
G1 X107.784 Y128.385 E3.76301
G1 X107.158 Y128.119 E3.7793
G1 X106.803 Y127.921 E3.78903
G1 X106.267 Y127.545 E3.80471
G1 X105.954 Y127.274 E3.81462
G1 X105.495 Y126.783 E3.83072
G1 X105.252 Y126.461 E3.84038
G1 X104.909 Y125.892 E3.85629
G1 X104.727 Y125.504 E3.86655
G1 X104.508 Y124.874 E3.88252
G1 X104.416 Y124.481 E3.89219
G1 X104.333 Y123.816 E3.90824
G1 X104.311 Y122.7 E3.93497
G1 X104.311 Y111.954 E4.19231
G1 X104.32 Y111.306 E4.20783
G1 X104.377 Y110.748 E4.22126
G1 X104.459 Y110.32 E4.23169
G1 X104.653 Y109.681 E4.24769
G1 X104.81 Y109.308 E4.25738
G1 X105.141 Y108.709 E4.27377
G1 X105.389 Y108.356 E4.2841
G1 X105.826 Y107.854 E4.30004
G1 F2700 E-0.69996
;MESH:choc_1.25.stl
G0 F6000 X106.953 Y110.725
G0 X107.93 Y111.339
G0 X108.682 Y123.576
G0 X108.771 Y123.845
G0 X109.283 Y124.47
;TYPE:WALL-INNER
G1 F2700 E4.30004
G1 F1200 X108.914 Y124.303 E4.30974
G1 X108.639 Y123.996 E4.31961
G1 X108.511 Y123.604 E4.32948
G1 X108.511 Y111.396 E4.62183
G1 X108.636 Y111.008 E4.63159
G1 X108.918 Y110.694 E4.6417
G1 X109.292 Y110.529 E4.65149
G1 X109.559 Y110.5 E4.65792
G1 X125.442 Y110.5 E5.03827
G1 X125.717 Y110.53 E5.0449
G1 X126.086 Y110.697 E5.0546
G1 X126.361 Y111.004 E5.06447
G1 X126.489 Y111.396 E5.07434
G1 X126.489 Y123.604 E5.36669
G1 X126.364 Y123.992 E5.37645
G1 X126.082 Y124.306 E5.38656
G1 X125.708 Y124.471 E5.39635
G1 X125.441 Y124.5 E5.40278
G1 X109.558 Y124.5 E5.78314
G1 X109.283 Y124.47 E5.78976
G0 F6000 X109.202 Y124.864
G1 F1200 X108.931 Y124.776 E5.79658
G1 X108.676 Y124.627 E5.80366
G1 X108.463 Y124.435 E5.81052
G1 X108.291 Y124.198 E5.81754
G1 X108.172 Y123.933 E5.82449
G1 X108.111 Y123.645 E5.83154
G1 X108.111 Y111.355 E6.12585
G1 X108.172 Y111.067 E6.1329
G1 X108.289 Y110.805 E6.13978
G1 X108.465 Y110.564 E6.14692
G1 X108.683 Y110.368 E6.15394
G1 X108.934 Y110.223 E6.16088
G1 X109.21 Y110.135 E6.16782
G1 X109.535 Y110.1 E6.17565
G1 X125.467 Y110.1 E6.55718
G1 X125.798 Y110.136 E6.56515
G1 X126.069 Y110.224 E6.57197
G1 X126.324 Y110.373 E6.57905
G1 X126.537 Y110.565 E6.58591
G1 X126.709 Y110.802 E6.59293
G1 X126.828 Y111.067 E6.59988
G1 X126.889 Y111.355 E6.60693
G1 X126.889 Y123.645 E6.90124
G1 X126.828 Y123.933 E6.90829
G1 X126.711 Y124.195 E6.91517
G1 X126.535 Y124.436 E6.92231
G1 X126.317 Y124.632 E6.92933
G1 X126.066 Y124.777 E6.93627
G1 X125.79 Y124.865 E6.94321
G1 X125.465 Y124.9 E6.95104
G1 X109.533 Y124.9 E7.33257
G1 X109.202 Y124.864 E7.34054
G0 F6000 X109.12 Y125.258
;TYPE:WALL-OUTER
G1 F1200 X108.765 Y125.142 E7.34948
G1 X108.439 Y124.952 E7.35852
G1 X108.166 Y124.706 E7.36732
G1 X107.942 Y124.398 E7.37644
G1 X107.79 Y124.057 E7.38538
G1 X107.711 Y123.686 E7.39447
G1 X107.711 Y111.314 E7.69074
G1 X107.79 Y110.943 E7.69983
G1 X107.942 Y110.602 E7.70877
G1 X108.167 Y110.294 E7.7179
G1 X108.448 Y110.041 E7.72695
G1 X108.769 Y109.856 E7.73583
G1 X109.128 Y109.741 E7.74485
G1 X109.512 Y109.7 E7.7541
G1 X125.492 Y109.7 E8.13678
G1 X125.88 Y109.742 E8.14613
G1 X126.235 Y109.858 E8.15507
G1 X126.561 Y110.048 E8.16411
G1 X126.834 Y110.294 E8.17291
G1 X127.058 Y110.602 E8.18203
G1 X127.21 Y110.943 E8.19097
G1 X127.289 Y111.314 E8.20005
G1 X127.289 Y123.686 E8.49633
G1 X127.21 Y124.057 E8.50541
G1 X127.058 Y124.398 E8.51435
G1 X126.833 Y124.706 E8.52348
G1 X126.552 Y124.959 E8.53254
G1 X126.231 Y125.144 E8.54141
G1 X125.872 Y125.259 E8.55044
G1 X125.488 Y125.3 E8.55969
G1 X109.508 Y125.3 E8.94236
G1 X109.12 Y125.258 E8.95171
G0 F6000 X109.212 Y124.828
G0 X109.384 Y124.088
;TYPE:SKIN
G1 F1200 X109.151 Y123.983 E8.95783
G1 X108.984 Y123.797 E8.96382
G1 X108.901 Y123.542 E8.97024
G1 X108.901 Y111.456 E9.25967
G1 X108.981 Y111.208 E9.26591
G1 X109.153 Y111.016 E9.27208
G1 X109.393 Y110.911 E9.27835
G1 X109.584 Y110.89 E9.28295
G1 X125.417 Y110.89 E9.66211
G1 X125.616 Y110.912 E9.66691
G1 X125.849 Y111.017 E9.67303
G1 X126.016 Y111.203 E9.67901
G1 X126.099 Y111.458 E9.68543
G1 X126.099 Y123.544 E9.97486
G1 X126.019 Y123.792 E9.9811
G1 X125.847 Y123.984 E9.98727
G1 X125.607 Y124.089 E9.99355
G1 X125.416 Y124.11 E9.99815
G1 X109.583 Y124.11 E10.37731
G1 X109.384 Y124.088 E10.3821
G0 F6000 X109.807 Y123.949
G1 F1200 X109.061 Y123.203 E10.40737
G0 F6000 X109.061 Y122.637
G1 F1200 X110.373 Y123.949 E10.4518
G0 F6000 X110.938 Y123.949
G1 F1200 X109.061 Y122.072 E10.51537
G0 F6000 X109.061 Y121.506
G1 F1200 X111.504 Y123.949 E10.5981
G0 F6000 X112.07 Y123.949
G1 F1200 X109.061 Y120.94 E10.70001
G0 F6000 X109.061 Y120.375
G1 F1200 X112.635 Y123.949 E10.82105
G0 F6000 X113.201 Y123.949
G1 F1200 X109.061 Y119.809 E10.96125
G0 F6000 X109.061 Y119.243
G1 F1200 X113.767 Y123.949 E11.12063
G0 F6000 X114.332 Y123.949
G1 F1200 X109.061 Y118.677 E11.29916
G0 F6000 X109.061 Y118.112
G1 F1200 X114.898 Y123.949 E11.49684
G0 F6000 X115.464 Y123.949
G1 F1200 X109.061 Y117.546 E11.71369
G0 F6000 X109.061 Y116.98
G1 F1200 X116.029 Y123.949 E11.94968
G0 F6000 X116.595 Y123.949
G1 F1200 X109.061 Y116.415 E12.20484
G0 F6000 X109.061 Y115.849
G1 F1200 X117.161 Y123.949 E12.47915
G0 F6000 X117.726 Y123.949
G1 F1200 X109.061 Y115.283 E12.77263
G0 F6000 X109.061 Y114.718
G1 F1200 X118.292 Y123.949 E13.08525
G0 F6000 X118.858 Y123.949
G1 F1200 X109.061 Y114.152 E13.41704
G0 F6000 X109.061 Y113.586
G1 F1200 X119.423 Y123.949 E13.76798
G0 F6000 X119.989 Y123.949
G1 F1200 X109.061 Y113.021 E14.13808
G0 F6000 X109.061 Y112.455
G1 F1200 X120.555 Y123.949 E14.52734
G0 F6000 X121.121 Y123.949
G1 F1200 X109.061 Y111.889 E14.93577
G0 F6000 X109.098 Y111.361
G1 F1200 X121.686 Y123.949 E15.36208
G0 F6000 X122.252 Y123.949
G1 F1200 X109.39 Y111.087 E15.79767
G0 F6000 X109.918 Y111.049
G1 F1200 X122.818 Y123.949 E16.23455
G0 F6000 X123.383 Y123.949
G1 F1200 X110.484 Y111.049 E16.67142
G0 F6000 X111.049 Y111.049
G1 F1200 X123.949 Y123.949 E17.10829
G0 F6000 X124.515 Y123.949
G1 F1200 X111.615 Y111.049 E17.54517
G0 F6000 X112.181 Y111.049
G1 F1200 X125.08 Y123.949 E17.98204
G0 F6000 X125.609 Y123.911
G1 F1200 X112.746 Y111.049 E18.41764
G0 F6000 X113.312 Y111.049
G1 F1200 X125.9 Y123.637 E18.84396
G0 F6000 X125.938 Y123.11
G1 F1200 X113.878 Y111.049 E19.25241
G0 F6000 X114.443 Y111.049
G1 F1200 X125.938 Y122.544 E19.6417
G0 F6000 X125.938 Y121.978
G1 F1200 X115.009 Y111.049 E20.01183
G0 F6000 X115.575 Y111.049
G1 F1200 X125.938 Y121.413 E20.36281
G0 F6000 X125.938 Y120.847
G1 F1200 X116.14 Y111.049 E20.69463
G0 F6000 X116.706 Y111.049
G1 F1200 X125.938 Y120.281 E21.00729
G0 F6000 X125.938 Y119.716
G1 F1200 X117.272 Y111.049 E21.30079
G0 F6000 X117.837 Y111.049
G1 F1200 X125.938 Y119.15 E21.57515
G0 F6000 X125.938 Y118.584
G1 F1200 X118.403 Y111.049 E21.83033
G0 F6000 X118.969 Y111.049
G1 F1200 X125.938 Y118.018 E22.06635
G0 F6000 X125.938 Y117.453
G1 F1200 X119.534 Y111.049 E22.28323
G0 F6000 X120.1 Y111.049
G1 F1200 X125.938 Y116.887 E22.48094
G0 F6000 X125.938 Y116.321
G1 F1200 X120.666 Y111.049 E22.65949
G0 F6000 X121.232 Y111.049
G1 F1200 X125.938 Y115.756 E22.81888
G0 F6000 X125.938 Y115.19
G1 F1200 X121.797 Y111.049 E22.95912
G0 F6000 X122.363 Y111.049
G1 F1200 X125.938 Y114.624 E23.08019
G0 F6000 X125.938 Y114.059
G1 F1200 X122.929 Y111.049 E23.18212
G0 F6000 X123.494 Y111.049
G1 F1200 X125.938 Y113.493 E23.26489
G0 F6000 X125.938 Y112.927
G1 F1200 X124.06 Y111.049 E23.32849
G0 F6000 X124.626 Y111.049
G1 F1200 X125.938 Y112.362 E23.37294
G0 F6000 X125.938 Y111.796
G1 F1200 X125.191 Y111.049 E23.39824
G0 F6000 X125.191 Y110.61
G0 X125.913 Y110.356
G0 X125.988 Y110.432
;TYPE:SKIN
G1 F1200 X126.611 Y111.055 E23.40195
G0 F6000 X126.645 Y111.089
G0 X126.601 Y123.773
G0 X126.634 Y123.806
G1 F1200 X126.318 Y124.338 E23.40386
G1 X125.983 Y124.569 E23.40512
G0 F6000 X125.951 Y124.537
G0 X109.086 Y124.642
G0 X109.01 Y124.566
G1 F1200 X108.387 Y123.943 E23.40882
G0 F6000 X108.353 Y123.909
G0 X108.397 Y111.225
G0 X108.363 Y111.192
G1 F1200 X108.68 Y110.66 E23.41073
G1 X109.014 Y110.429 E23.41198
G0 F6000 X109.036 Y110.433
G1 F2700 E18.41198
;MESH:NONMESH
G0 F300 X109.036 Y110.433 Z0.24
G0 F6000 X108.682 Y111.423
G0 X108.682 Y123.576
G0 X108.792 Y123.909
G0 X109.017 Y124.162
G0 X109.296 Y124.288
G0 X125.712 Y124.471
;TIME_ELAPSED:60.178620
;LAYER:1
M106 S85
;TYPE:WALL-INNER
;MESH:choc_1.25.stl
G1 F2700 E23.41198
G1 F975 X125.442 Y124.5 E23.41849
G1 X109.545 Y124.499 E23.79918
G1 X109.287 Y124.471 E23.80539
G1 X108.915 Y124.305 E23.81515
G1 X108.639 Y123.996 E23.82507
G1 X108.511 Y123.604 E23.83494
G1 X108.511 Y111.396 E24.12729
G1 X108.639 Y111.004 E24.13717
G1 X108.915 Y110.695 E24.14709
G1 X109.288 Y110.529 E24.15686
G1 X109.558 Y110.5 E24.16337
G1 X125.455 Y110.501 E24.54406
G1 X125.713 Y110.529 E24.55027
G1 X126.085 Y110.695 E24.56003
G1 X126.361 Y111.004 E24.56995
G1 X126.489 Y111.396 E24.57982
G1 X126.489 Y123.604 E24.87217
G1 X126.361 Y123.996 E24.88205
G1 X126.085 Y124.305 E24.89197
G1 X125.712 Y124.471 E24.90175
G0 F7500 X125.794 Y124.865
G1 F975 X125.465 Y124.9 E24.90967
G1 X109.521 Y124.899 E25.29149
G1 X109.206 Y124.865 E25.29907
G1 X108.932 Y124.776 E25.30597
G1 X108.678 Y124.63 E25.31299
G1 X108.463 Y124.435 E25.31994
G1 X108.291 Y124.198 E25.32695
G1 X108.172 Y123.933 E25.33391
G1 X108.111 Y123.645 E25.34096
G1 X108.111 Y111.355 E25.63527
G1 X108.172 Y111.067 E25.64232
G1 X108.291 Y110.802 E25.64928
G1 X108.463 Y110.565 E25.65629
G1 X108.678 Y110.37 E25.66324
G1 X108.932 Y110.224 E25.67026
G1 X109.206 Y110.135 E25.67715
G1 X109.535 Y110.1 E25.68508
G1 X125.479 Y110.101 E26.06689
G1 X125.794 Y110.135 E26.07448
G1 X126.068 Y110.224 E26.08138
G1 X126.322 Y110.37 E26.0884
G1 X126.537 Y110.565 E26.09535
G1 X126.709 Y110.802 E26.10236
G1 X126.828 Y111.067 E26.10932
G1 X126.889 Y111.355 E26.11637
G1 X126.889 Y123.645 E26.41068
G1 X126.828 Y123.933 E26.41773
G1 X126.709 Y124.198 E26.42468
G1 X126.537 Y124.435 E26.4317
G1 X126.322 Y124.63 E26.43865
G1 X126.068 Y124.776 E26.44566
G1 X125.794 Y124.865 E26.45256
G0 F7500 X125.875 Y125.259
;TYPE:WALL-OUTER
G1 F975 X125.488 Y125.3 E26.46188
G1 X109.497 Y125.299 E26.84482
G1 X109.125 Y125.259 E26.85378
G1 X108.768 Y125.143 E26.86277
G1 X108.441 Y124.955 E26.87181
G1 X108.166 Y124.706 E26.88069
G1 X107.942 Y124.398 E26.88981
G1 X107.79 Y124.057 E26.89875
G1 X107.711 Y123.686 E26.90783
G1 X107.711 Y111.314 E27.20411
G1 X107.79 Y110.943 E27.21319
G1 X107.942 Y110.602 E27.22213
G1 X108.166 Y110.294 E27.23125
G1 X108.441 Y110.045 E27.24014
G1 X108.768 Y109.857 E27.24917
G1 X109.125 Y109.741 E27.25816
G1 X109.512 Y109.7 E27.26748
G1 X125.503 Y109.701 E27.65042
G1 X125.875 Y109.741 E27.65938
G1 X126.232 Y109.857 E27.66837
G1 X126.559 Y110.045 E27.6774
G1 X126.834 Y110.294 E27.68629
G1 X127.058 Y110.602 E27.69541
G1 X127.21 Y110.943 E27.70435
G1 X127.289 Y111.314 E27.71343
G1 X127.289 Y123.686 E28.00971
G1 X127.21 Y124.057 E28.01879
G1 X127.058 Y124.398 E28.02773
G1 X126.834 Y124.706 E28.03685
G1 X126.559 Y124.955 E28.04573
G1 X126.232 Y125.143 E28.05477
G1 X125.875 Y125.259 E28.06376
G0 F7500 X125.784 Y124.829
G0 X125.609 Y124.089
;TYPE:SKIN
G1 F975 X125.418 Y124.11 E28.06836
G1 X109.57 Y124.109 E28.44787
G1 X109.392 Y124.089 E28.45216
G1 X109.148 Y123.981 E28.45855
G1 X108.985 Y123.798 E28.46442
G1 X108.901 Y123.542 E28.47087
G1 X108.901 Y111.458 E28.76025
G1 X108.984 Y111.203 E28.76668
G1 X109.15 Y111.018 E28.77263
G1 X109.391 Y110.911 E28.77894
G1 X109.582 Y110.89 E28.78354
G1 X125.43 Y110.891 E29.16306
