;FLAVOR:Marlin
;TIME:1125
;Filament used: 0.431465m
;Layer height: 0.12
;MINX:104.236
;MINY:107.363
;MINZ:0.12
;MAXX:127.414
;MAXY:130.563
;MAXZ:7.44
;Generated with Cura_SteamEngine 4.8.0
M140 S50
M105
M190 S50
M104 S200
M105
M109 S200
M82 ;absolute extrusion mode
; Ender 3 Custom Start G-code
G92 E0 ; Reset Extruder
G28 ; Home all axes
G1 Z2.0 F3000 ; Move Z Axis up little to prevent scratching of Heat Bed
G1 X0.1 Y20 Z0.3 F5000.0 ; Move to start position
G1 X0.1 Y200.0 Z0.3 F1500.0 E15 ; Draw the first line
G1 X0.4 Y200.0 Z0.3 F5000.0 ; Move to side a little
G1 X0.4 Y20 Z0.3 F1500.0 E30 ; Draw the second line
G92 E0 ; Reset Extruder
G1 Z2.0 F3000 ; Move Z Axis up little to prevent scratching of Heat Bed
G1 X5 Y20 Z0.3 F5000.0 ; Move over to prevent blob squish
G92 E0
G92 E0
G1 F2700 E-5
;LAYER_COUNT:62
;LAYER:0
M107
G0 F6000 X105.873 Y109.032 Z0.12
;TYPE:SKIRT
G1 F2700 E0
G1 F1200 X106.19 Y108.736 E0.01039
G1 X106.792 Y108.282 E0.02844
G1 X107.158 Y108.062 E0.03867
G1 X107.779 Y107.765 E0.05515
G1 X108.097 Y107.655 E0.06321
G1 X108.329 Y107.584 E0.06902
G1 X108.952 Y107.452 E0.08427
G1 X109.384 Y107.4 E0.09469
G1 X109.675 Y107.377 E0.10168
G1 X109.925 Y107.368 E0.10767
G1 X110.337 Y107.363 E0.11754
G1 X121.175 Y107.363 E0.37708
G1 X121.873 Y107.373 E0.3938
G1 X122.217 Y107.392 E0.40205
G1 X122.629 Y107.438 E0.41198
G1 X123.239 Y107.567 E0.42691
G1 X123.646 Y107.691 E0.4371
G1 X124.347 Y107.989 E0.45534
G1 X124.728 Y108.201 E0.46578
G1 X125.331 Y108.623 E0.4834
G1 X125.61 Y108.864 E0.49223
G1 X126.128 Y109.417 E0.51038
G1 X126.401 Y109.778 E0.52122
G1 X126.789 Y110.419 E0.53916
G1 X126.958 Y110.779 E0.54868
G1 X127.204 Y111.489 E0.56668
G1 X127.298 Y111.891 E0.57656
G1 X127.392 Y112.638 E0.59459
G1 X127.414 Y113.741 E0.62101
G1 X127.414 Y124.515 E0.87902
G1 X127.405 Y125.163 E0.89454
G1 X127.341 Y125.79 E0.90963
G1 X127.259 Y126.218 E0.92007
G1 X127.04 Y126.94 E0.93814
G1 X126.878 Y127.324 E0.94812
G1 X126.515 Y127.983 E0.96613
G1 X126.253 Y128.359 E0.97711
G1 X125.782 Y128.908 E0.99443
G1 X125.571 Y129.103 E1.00131
G1 X125.363 Y129.283 E1.0079
G1 X124.858 Y129.649 E1.02283
G1 X124.571 Y129.821 E1.03085
G1 X124.179 Y130.024 E1.04142
G1 X123.976 Y130.114 E1.04674
G1 X123.582 Y130.262 E1.05681
G1 X123.343 Y130.336 E1.06281
G1 X122.718 Y130.47 E1.07811
G1 X122.271 Y130.525 E1.0889
G1 X121.954 Y130.55 E1.09651
G1 X121.602 Y130.561 E1.10495
G1 X121.389 Y130.563 E1.11005
G1 X110.475 Y130.563 E1.37141
G1 X109.777 Y130.553 E1.38813
G1 X109.448 Y130.535 E1.39602
G1 X109.27 Y130.518 E1.4003
G1 X108.98 Y130.483 E1.40729
G1 X108.399 Y130.364 E1.4215
G1 X108.104 Y130.274 E1.42888
G1 X107.891 Y130.201 E1.43427
G1 X107.304 Y129.939 E1.44967
G1 X106.915 Y129.722 E1.46033
G1 X106.305 Y129.293 E1.47819
G1 X105.995 Y129.023 E1.48804
G1 X105.546 Y128.554 E1.50359
G1 X105.304 Y128.239 E1.5131
G1 X105.184 Y128.067 E1.51812
G1 X104.879 Y127.541 E1.53268
G1 X104.692 Y127.144 E1.54319
G1 X104.442 Y126.425 E1.56142
G1 X104.35 Y126.029 E1.57115
G1 X104.258 Y125.286 E1.58908
G1 X104.236 Y124.163 E1.61598
G1 X104.236 Y113.411 E1.87346
G1 X104.245 Y112.763 E1.88898
G1 X104.309 Y112.136 E1.90408
G1 X104.391 Y111.708 E1.91451
G1 X104.609 Y110.988 E1.93253
G1 X104.766 Y110.615 E1.94222
G1 X105.142 Y109.938 E1.96076
G1 X105.388 Y109.589 E1.97099
G1 X105.873 Y109.032 E1.98867
G0 F6000 X106.146 Y109.324
G1 F1200 X106.463 Y109.028 E1.99906
G1 X106.998 Y108.624 E2.01511
G1 X107.364 Y108.404 E2.02534
G1 X107.916 Y108.141 E2.03998
G1 X108.214 Y108.037 E2.04754
G1 X108.446 Y107.966 E2.05335
G1 X109 Y107.849 E2.06691
G1 X109.432 Y107.797 E2.07733
G1 X109.69 Y107.776 E2.08353
G1 X109.93 Y107.768 E2.08928
G1 X110.342 Y107.763 E2.09915
G1 X121.169 Y107.763 E2.35843
G1 X121.867 Y107.773 E2.37514
G1 X122.188 Y107.791 E2.38284
G1 X122.58 Y107.835 E2.39229
G1 X123.123 Y107.95 E2.40558
G1 X123.53 Y108.074 E2.41577
G1 X124.153 Y108.339 E2.43198
G1 X124.534 Y108.551 E2.44242
G1 X125.07 Y108.925 E2.45807
G1 X125.349 Y109.166 E2.4669
G1 X125.809 Y109.658 E2.48303
G1 X126.082 Y110.019 E2.49387
G1 X126.427 Y110.589 E2.50983
G1 X126.596 Y110.949 E2.51935
G1 X126.815 Y111.58 E2.53535
G1 X126.909 Y111.982 E2.54523
G1 X126.992 Y112.646 E2.56126
G1 X127.014 Y113.741 E2.58748
G1 X127.014 Y124.509 E2.84535
G1 X127.005 Y125.157 E2.86087
G1 X126.948 Y125.715 E2.8743
G1 X126.866 Y126.143 E2.88474
G1 X126.671 Y126.785 E2.9008
G1 X126.509 Y127.169 E2.91078
G1 X126.186 Y127.754 E2.92679
G1 X125.924 Y128.13 E2.93776
G1 X125.506 Y128.618 E2.95315
G1 X125.309 Y128.801 E2.95959
G1 X125.101 Y128.981 E2.96617
G1 X124.652 Y129.306 E2.97945
G1 X124.365 Y129.478 E2.98746
G1 X124.017 Y129.658 E2.99684
G1 X123.814 Y129.748 E3.00216
G1 X123.463 Y129.88 E3.01114
G1 X123.224 Y129.954 E3.01713
G1 X122.669 Y130.073 E3.03073
G1 X122.222 Y130.128 E3.04151
G1 X121.94 Y130.15 E3.04828
G1 X121.598 Y130.161 E3.05648
G1 X121.385 Y130.163 E3.06158
G1 X110.481 Y130.163 E3.3227
G1 X109.783 Y130.153 E3.33942
G1 X109.477 Y130.136 E3.34676
G1 X109.318 Y130.121 E3.35058
G1 X109.028 Y130.086 E3.35758
G1 X108.512 Y129.98 E3.37019
G1 X108.234 Y129.895 E3.37715
G1 X108.021 Y129.822 E3.38255
G1 X107.499 Y129.59 E3.39622
G1 X107.11 Y129.373 E3.40689
G1 X106.567 Y128.991 E3.42279
G1 X106.257 Y128.721 E3.43263
G1 X105.858 Y128.305 E3.44644
G1 X105.632 Y128.01 E3.45534
G1 X105.512 Y127.838 E3.46036
G1 X105.241 Y127.371 E3.47329
G1 X105.054 Y126.974 E3.4838
G1 X104.832 Y126.334 E3.50002
G1 X104.74 Y125.938 E3.50976
G1 X104.658 Y125.278 E3.52568
G1 X104.636 Y124.163 E3.55239
G1 X104.636 Y113.417 E3.80973
G1 X104.645 Y112.769 E3.82525
G1 X104.702 Y112.211 E3.83868
G1 X104.784 Y111.783 E3.84912
G1 X104.978 Y111.144 E3.86511
G1 X105.135 Y110.771 E3.8748
G1 X105.468 Y110.168 E3.89129
G1 X105.714 Y109.819 E3.90152
G1 X106.146 Y109.324 E3.91725
G1 F2700 E-1.08275
;MESH:long_fat_stem.stl
G0 F6000 X107.936 Y111.094
G0 X108.658 Y111.9
G0 X109.007 Y125.04
G0 X109.114 Y125.371
G0 X109.338 Y125.622
G0 X109.629 Y125.753
G0 X122.031 Y125.935
;TYPE:WALL-INNER
G1 F2700 E3.91725
G1 F1200 X121.768 Y125.963 E3.92359
G1 X109.877 Y125.963 E4.20834
G1 X109.616 Y125.935 E4.21463
G1 X109.236 Y125.764 E4.22461
G1 X108.962 Y125.458 E4.23445
G1 X108.836 Y125.067 E4.24428
G1 X108.836 Y112.859 E4.53663
G1 X108.961 Y112.471 E4.54639
G1 X109.247 Y112.154 E4.55662
G1 X109.616 Y111.992 E4.56627
G1 X109.884 Y111.963 E4.57272
G1 X121.767 Y111.963 E4.85729
G1 X122.04 Y111.993 E4.86387
G1 X122.411 Y112.161 E4.87362
G1 X122.688 Y112.468 E4.88352
G1 X122.814 Y112.859 E4.89336
G1 X122.814 Y125.067 E5.18571
G1 X122.684 Y125.466 E5.19576
G1 X122.407 Y125.77 E5.20561
G1 X122.031 Y125.935 E5.21544
G0 F6000 X122.113 Y126.329
G1 F1200 X121.791 Y126.363 E5.22319
G1 X109.854 Y126.363 E5.50905
G1 X109.534 Y126.329 E5.51676
G1 X109.256 Y126.238 E5.52376
G1 X109 Y126.089 E5.53086
G1 X108.788 Y125.899 E5.53767
G1 X108.615 Y125.661 E5.54472
G1 X108.497 Y125.396 E5.55167
G1 X108.436 Y125.108 E5.55872
G1 X108.436 Y112.818 E5.85303
G1 X108.497 Y112.53 E5.86008
G1 X108.614 Y112.268 E5.86695
G1 X108.791 Y112.025 E5.87415
G1 X109.009 Y111.83 E5.88115
G1 X109.256 Y111.687 E5.88799
G1 X109.536 Y111.598 E5.89502
G1 X109.86 Y111.563 E5.90283
G1 X121.792 Y111.563 E6.18857
G1 X122.122 Y111.599 E6.19652
G1 X122.394 Y111.688 E6.20337
G1 X122.648 Y111.836 E6.21041
G1 X122.864 Y112.031 E6.21738
G1 X123.035 Y112.265 E6.22432
G1 X123.153 Y112.53 E6.23127
G1 X123.214 Y112.818 E6.23832
G1 X123.214 Y125.108 E6.53263
G1 X123.153 Y125.396 E6.53968
G1 X123.034 Y125.664 E6.5467
G1 X122.863 Y125.899 E6.55366
G1 X122.643 Y126.096 E6.56073
G1 X122.396 Y126.238 E6.56755
G1 X122.113 Y126.329 E6.57467
G0 F6000 X122.197 Y126.723
;TYPE:WALL-OUTER
G1 F1200 X121.814 Y126.763 E6.58389
G1 X109.831 Y126.763 E6.87085
G1 X109.451 Y126.723 E6.88001
G1 X109.091 Y126.605 E6.88908
G1 X108.763 Y126.414 E6.89817
G1 X108.489 Y126.168 E6.90698
G1 X108.268 Y125.864 E6.91599
G1 X108.115 Y125.52 E6.925
G1 X108.036 Y125.149 E6.93408
G1 X108.036 Y112.777 E7.23036
G1 X108.115 Y112.406 E7.23944
G1 X108.267 Y112.065 E7.24838
G1 X108.493 Y111.755 E7.25757
G1 X108.771 Y111.506 E7.26651
G1 X109.095 Y111.319 E7.27547
G1 X109.453 Y111.204 E7.28447
G1 X109.837 Y111.163 E7.29372
G1 X121.817 Y111.163 E7.58061
G1 X122.205 Y111.205 E7.58995
G1 X122.559 Y111.321 E7.59888
G1 X122.885 Y111.511 E7.60791
G1 X123.164 Y111.762 E7.6169
G1 X123.382 Y112.062 E7.62578
G1 X123.535 Y112.406 E7.6348
G1 X123.614 Y112.777 E7.64388
G1 X123.614 Y125.149 E7.94016
G1 X123.535 Y125.52 E7.94924
G1 X123.382 Y125.864 E7.95825
G1 X123.16 Y126.171 E7.96733
G1 X122.88 Y126.42 E7.9763
G1 X122.556 Y126.607 E7.98526
G1 X122.197 Y126.723 E7.99429
G0 F6000 X122.107 Y126.293
G0 X121.931 Y125.553
;TYPE:SKIN
G1 F1200 X121.745 Y125.573 E7.99877
G1 X109.9 Y125.573 E8.28243
G1 X109.717 Y125.553 E8.28684
G1 X109.472 Y125.442 E8.29328
G1 X109.308 Y125.26 E8.29915
G1 X109.226 Y125.007 E8.30551
G1 X109.226 Y112.919 E8.59499
G1 X109.307 Y112.669 E8.60128
G1 X109.479 Y112.478 E8.60744
G1 X109.716 Y112.374 E8.61364
G1 X109.909 Y112.353 E8.61828
G1 X121.742 Y112.353 E8.90165
G1 X121.937 Y112.375 E8.90635
G1 X122.177 Y112.483 E8.91266
G1 X122.342 Y112.666 E8.91856
G1 X122.424 Y112.919 E8.92492
G1 X122.424 Y125.005 E9.21435
G1 X122.34 Y125.264 E9.22087
G1 X122.173 Y125.448 E9.22682
G1 X121.931 Y125.553 E9.23314
G0 F6000 X121.96 Y125.831
G0 X110.138 Y125.853
G0 X110.138 Y125.412
G1 F1200 X109.385 Y124.659 E9.25864
G0 F6000 X109.385 Y124.093
G1 F1200 X110.704 Y125.412 E9.30331
G0 F6000 X111.27 Y125.412
G1 F1200 X109.385 Y123.528 E9.36713
G0 F6000 X109.385 Y122.962
G1 F1200 X111.836 Y125.412 E9.45012
G0 F6000 X112.401 Y125.412
G1 F1200 X109.385 Y122.396 E9.55226
G0 F6000 X109.385 Y121.83
G1 F1200 X112.967 Y125.412 E9.67358
G0 F6000 X113.533 Y125.412
G1 F1200 X109.385 Y121.265 E9.81404
G0 F6000 X109.385 Y120.699
G1 F1200 X114.098 Y125.412 E9.97365
G0 F6000 X114.664 Y125.412
G1 F1200 X109.385 Y120.133 E10.15243
G0 F6000 X109.385 Y119.568
G1 F1200 X115.23 Y125.412 E10.35036
G0 F6000 X115.795 Y125.412
G1 F1200 X109.385 Y119.002 E10.56745
G0 F6000 X109.385 Y118.436
G1 F1200 X116.361 Y125.412 E10.8037
G0 F6000 X116.927 Y125.412
G1 F1200 X109.385 Y117.871 E11.05911
G0 F6000 X109.385 Y117.305
G1 F1200 X117.492 Y125.412 E11.33366
G0 F6000 X118.058 Y125.412
G1 F1200 X109.385 Y116.739 E11.62739
G0 F6000 X109.385 Y116.174
G1 F1200 X118.624 Y125.412 E11.94027
G0 F6000 X119.189 Y125.412
G1 F1200 X109.385 Y115.608 E12.27229
G0 F6000 X109.385 Y115.042
G1 F1200 X119.755 Y125.412 E12.62349
G0 F6000 X120.321 Y125.412
G1 F1200 X109.385 Y114.477 E12.99384
G0 F6000 X109.385 Y113.911
G1 F1200 X120.886 Y125.412 E13.38334
G0 F6000 X121.452 Y125.412
G1 F1200 X109.385 Y113.345 E13.79201
G0 F6000 X109.426 Y112.82
G1 F1200 X121.967 Y125.361 E14.21673
G0 F6000 X122.236 Y125.064
G1 F1200 X109.718 Y112.547 E14.64065
G0 F6000 X110.249 Y112.512
G1 F1200 X122.263 Y124.526 E15.04753
G0 F6000 X122.263 Y123.96
G1 F1200 X110.815 Y112.512 E15.43523
G0 F6000 X111.381 Y112.512
G1 F1200 X122.263 Y123.395 E15.80378
G0 F6000 X122.263 Y122.829
G1 F1200 X111.947 Y112.512 E16.15317
G0 F6000 X112.512 Y112.512
G1 F1200 X122.263 Y122.263 E16.4834
G0 F6000 X122.263 Y121.698
G1 F1200 X113.078 Y112.512 E16.79448
G0 F6000 X113.644 Y112.512
G1 F1200 X122.263 Y121.132 E17.0864
G0 F6000 X122.263 Y120.566
G1 F1200 X114.209 Y112.512 E17.35916
G0 F6000 X114.775 Y112.512
G1 F1200 X122.263 Y120 E17.61275
G0 F6000 X122.263 Y119.435
G1 F1200 X115.341 Y112.512 E17.84719
G0 F6000 X115.906 Y112.512
G1 F1200 X122.263 Y118.869 E18.06248
G0 F6000 X122.263 Y118.303
G1 F1200 X116.472 Y112.512 E18.2586
G0 F6000 X117.038 Y112.512
G1 F1200 X122.263 Y117.738 E18.43557
G0 F6000 X122.263 Y117.172
G1 F1200 X117.603 Y112.512 E18.59339
G0 F6000 X118.169 Y112.512
G1 F1200 X122.263 Y116.606 E18.73204
G0 F6000 X122.263 Y116.041
G1 F1200 X118.735 Y112.512 E18.85154
G0 F6000 X119.3 Y112.512
G1 F1200 X122.263 Y115.475 E18.95189
G0 F6000 X122.263 Y114.909
G1 F1200 X119.866 Y112.512 E19.03307
G0 F6000 X120.432 Y112.512
G1 F1200 X122.263 Y114.344 E19.09509
G0 F6000 X122.263 Y113.778
G1 F1200 X120.997 Y112.512 E19.13797
G0 F6000 X121.563 Y112.512
G1 F1200 X122.263 Y113.212 E19.16167
G0 F6000 X122.704 Y113.212
G0 X122.745 Y112.28
G0 X122.677 Y112.212
;TYPE:SKIN
G1 F1200 X122.358 Y111.893 E19.1656
G0 F6000 X122.309 Y111.844
G0 X109.375 Y111.92
G0 X109.343 Y111.888
G1 F1200 X109.008 Y112.119 E19.16687
G1 X108.69 Y112.649 E19.1688
G0 F6000 X108.724 Y112.683
G0 X108.673 Y125.36
G0 X108.709 Y125.396
G1 F1200 X109.342 Y126.029 E19.17267
G0 F6000 X109.42 Y126.108
G0 X122.31 Y125.987
G0 X122.341 Y126.018
G1 F1200 X122.668 Y125.78 E19.17384
G1 X122.973 Y125.236 E19.17563
G0 F6000 X122.965 Y125.215
;MESH:NONMESH
G0 F300 X122.965 Y125.215 Z0.24
G0 F6000 X122.032 Y125.935
;TIME_ELAPSED:50.574524
;LAYER:1
M106 S85
;TYPE:WALL-INNER
;MESH:long_fat_stem.stl
G1 F1200 X121.769 Y125.963 E19.18196
G1 X109.867 Y125.962 E19.46699
G1 X109.616 Y125.935 E19.47303
G1 X109.242 Y125.768 E19.48284
G1 X108.964 Y125.46 E19.49278
G1 X108.836 Y125.067 E19.50267
G1 X108.836 Y112.859 E19.79502
G1 X108.964 Y112.467 E19.8049
G1 X109.245 Y112.155 E19.81495
G1 X109.614 Y111.992 E19.82461
G1 X109.883 Y111.963 E19.83109
G1 X121.78 Y111.964 E20.11599
G1 X122.038 Y111.992 E20.12221
G1 X122.407 Y112.156 E20.13188
G1 X122.686 Y112.465 E20.14185
G1 X122.814 Y112.859 E20.15177
G1 X122.814 Y125.067 E20.44412
G1 X122.688 Y125.458 E20.45395
G1 X122.407 Y125.77 E20.46401
G1 X122.032 Y125.935 E20.47382
G0 F7500 X122.116 Y126.329
G1 F1200 X121.792 Y126.363 E20.48162
G1 X109.844 Y126.362 E20.76774
G1 X109.534 Y126.329 E20.77521
G1 X109.258 Y126.239 E20.78216
G1 X109.006 Y126.094 E20.78912
G1 X108.784 Y125.894 E20.79628
G1 X108.617 Y125.664 E20.80309
G1 X108.497 Y125.396 E20.81012
G1 X108.436 Y125.108 E20.81717
G1 X108.436 Y112.818 E21.11148
G1 X108.497 Y112.53 E21.11853
G1 X108.616 Y112.265 E21.12549
G1 X108.786 Y112.031 E21.13241
G1 X109.007 Y111.831 E21.13955
G1 X109.259 Y111.687 E21.1465
G1 X109.532 Y111.598 E21.15338
G1 X109.86 Y111.563 E21.16128
G1 X121.804 Y111.564 E21.4473
G1 X122.119 Y111.598 E21.45489
G1 X122.393 Y111.687 E21.46179
G1 X122.644 Y111.831 E21.46872
G1 X122.864 Y112.03 E21.47582
G1 X123.035 Y112.265 E21.48278
G1 X123.153 Y112.53 E21.48973
G1 X123.214 Y112.818 E21.49678
G1 X123.214 Y125.108 E21.79109
G1 X123.153 Y125.396 E21.79814
G1 X123.035 Y125.661 E21.80509
G1 X122.864 Y125.897 E21.81207
G1 X122.645 Y126.094 E21.81912
G1 X122.394 Y126.239 E21.82606
G1 X122.116 Y126.329 E21.83306
G0 F7500 X122.2 Y126.723
;TYPE:WALL-OUTER
G1 F1200 X121.814 Y126.763 E21.84235
G1 X109.821 Y126.762 E22.12955
G1 X109.45 Y126.723 E22.13849
G1 X109.094 Y126.606 E22.14746
G1 X108.77 Y126.42 E22.15641
G1 X108.487 Y126.165 E22.16553
G1 X108.268 Y125.864 E22.17444
G1 X108.115 Y125.52 E22.18346
G1 X108.036 Y125.149 E22.19254
G1 X108.036 Y112.777 E22.48882
G1 X108.115 Y112.406 E22.4979
G1 X108.267 Y112.065 E22.50684
G1 X108.489 Y111.76 E22.51588
G1 X108.77 Y111.506 E22.52495
G1 X109.094 Y111.32 E22.53389
G1 X109.45 Y111.204 E22.54286
G1 X109.837 Y111.163 E22.55218
G1 X121.828 Y111.164 E22.83933
G1 X122.2 Y111.204 E22.84829
G1 X122.557 Y111.32 E22.85728
G1 X122.881 Y111.506 E22.86623
G1 X123.164 Y111.762 E22.87537
G1 X123.382 Y112.062 E22.88425
G1 X123.535 Y112.406 E22.89326
G1 X123.614 Y112.777 E22.90235
G1 X123.614 Y125.149 E23.19862
G1 X123.535 Y125.52 E23.20771
G1 X123.382 Y125.864 E23.21672
G1 X123.164 Y126.165 E23.22562
G1 X122.881 Y126.42 E23.23474
G1 X122.557 Y126.606 E23.24369
G1 X122.2 Y126.723 E23.25269
G0 F7500 X122.109 Y126.293
G0 X121.93 Y125.553
;TYPE:SKIN
G1 F1200 X121.746 Y125.573 E23.25712
G1 X109.89 Y125.572 E23.54104
G1 X109.719 Y125.554 E23.54516
G1 X109.474 Y125.444 E23.55159
G1 X109.31 Y125.262 E23.55746
G1 X109.226 Y125.005 E23.56393
G1 X109.226 Y112.921 E23.85331
G1 X109.309 Y112.667 E23.85971
G1 X109.479 Y112.478 E23.8658
G1 X109.716 Y112.374 E23.87199
G1 X109.907 Y112.353 E23.8766
G1 X121.755 Y112.354 E24.16032
G1 X121.936 Y112.374 E24.16468
G1 X122.175 Y112.48 E24.17094
G1 X122.34 Y112.663 E24.17685
G1 X122.424 Y112.921 E24.18334
G1 X122.424 Y125.007 E24.47277
